ytixu/whileAlive/robotics/arm/data4.csv
j2n6s300_joint_1	j2n6s300_joint_2	j2n6s300_joint_3	j2n6s300_joint_4	j2n6s300_joint_5	j2n6s300_joint_6	j2n6s300_joint_finger_1	j2n6s300_joint_finger_2	j2n6s300_joint_finger_3	j2n6s300_joint_1-velocity	j2n6s300_joint_2-velocity	j2n6s300_joint_3-velocity	j2n6s300_joint_4-velocity	j2n6s300_joint_5-velocity	j2n6s300_joint_6-velocity	j2n6s300_joint_finger_1-velocity	j2n6s300_joint_finger_2-velocity	j2n6s300_joint_finger_3-velocity	j2n6s300_joint_1-effort	j2n6s300_joint_2-effort	j2n6s300_joint_3-effort	j2n6s300_joint_4-effort	j2n6s300_joint_5-effort	j2n6s300_joint_6-effort	j2n6s300_joint_finger_1-effort	j2n6s300_joint_finger_2-effort	j2n6s300_joint_finger_3-effort	j2n6s300::j2n6s300_link_finger_1-x	j2n6s300::j2n6s300_link_finger_1-y	j2n6s300::j2n6s300_link_finger_1-z	j2n6s300::j2n6s300_link_finger_1-ox	j2n6s300::j2n6s300_link_finger_1-oy	j2n6s300::j2n6s300_link_finger_1oz	j2n6s300::j2n6s300_link_finger_2-x	j2n6s300::j2n6s300_link_finger_2-y	j2n6s300::j2n6s300_link_finger_2-z	j2n6s300::j2n6s300_link_finger_2-ox	j2n6s300::j2n6s300_link_finger_2-oy	j2n6s300::j2n6s300_link_finger_2oz	j2n6s300::j2n6s300_link_finger_3-x	j2n6s300::j2n6s300_link_finger_3-y	j2n6s300::j2n6s300_link_finger_3-z	j2n6s300::j2n6s300_link_finger_3-ox	j2n6s300::j2n6s300_link_finger_3-oy	j2n6s300::j2n6s300_link_finger_3oz	j2n6s300::root-x	j2n6s300::root-y	j2n6s300::root-z	j2n6s300::root-ox	j2n6s300::root-oy	j2n6s300::rootoz	j2n6s300::j2n6s300_link_3-x	j2n6s300::j2n6s300_link_3-y	j2n6s300::j2n6s300_link_3-z	j2n6s300::j2n6s300_link_3-ox	j2n6s300::j2n6s300_link_3-oy	j2n6s300::j2n6s300_link_3oz	j2n6s300::j2n6s300_link_2-x	j2n6s300::j2n6s300_link_2-y	j2n6s300::j2n6s300_link_2-z	j2n6s300::j2n6s300_link_2-ox	j2n6s300::j2n6s300_link_2-oy	j2n6s300::j2n6s300_link_2oz	j2n6s300::j2n6s300_link_1-x	j2n6s300::j2n6s300_link_1-y	j2n6s300::j2n6s300_link_1-z	j2n6s300::j2n6s300_link_1-ox	j2n6s300::j2n6s300_link_1-oy	j2n6s300::j2n6s300_link_1oz	j2n6s300::j2n6s300_link_6-x	j2n6s300::j2n6s300_link_6-y	j2n6s300::j2n6s300_link_6-z	j2n6s300::j2n6s300_link_6-ox	j2n6s300::j2n6s300_link_6-oy	j2n6s300::j2n6s300_link_6oz	j2n6s300::j2n6s300_link_5-x	j2n6s300::j2n6s300_link_5-y	j2n6s300::j2n6s300_link_5-z	j2n6s300::j2n6s300_link_5-ox	j2n6s300::j2n6s300_link_5-oy	j2n6s300::j2n6s300_link_5oz	j2n6s300::j2n6s300_link_4-x	j2n6s300::j2n6s300_link_4-y	j2n6s300::j2n6s300_link_4-z	j2n6s300::j2n6s300_link_4-ox	j2n6s300::j2n6s300_link_4-oy	j2n6s300::j2n6s300_link_4oz	object-height	object-radius	object-pos-x	object-pos-y	object-pos-z
-0.634224709969	1.97547050945	5.14982646129	-0.501011644279	1.95082689408	14.9714742844	0.200197416028	0.199888407622	0.199743513284	-0.0141977730726	-0.00527484577245	-0.000396578981636	0.0215670825755	0.000223354683132	0.00683767501717	-0.0237762279895	-0.0162515813289	-0.00041469391733	-0.137963446611	9.60768868799	-1.11614245955	0.0610350492171	0.648564963639	0.0121840055911	-0.00198313281762	0.000136026593355	0.00227867046028	0.45115124505	0.337284041943	0.199861399312	-0.684284381111	-0.718179230607	-0.108395732587	0.491171312728	0.297257846185	0.224488155589	-0.0165716809946	-0.179312544918	0.0640703942897	0.501113358178	0.301918774254	0.181533835808	0.111064935546	-0.0489502070752	0.0858834111798	5.8152577724e-05	3.15450397402e-05	2.89198188583e-06	2.3724620103e-05	-5.28685573601e-05	1.08540208584e-05	0.348375711817	0.123972725291	0.452771312468	0.687144613807	0.166964365059	-0.0699626881259	-0.000463517398516	0.00155163689155	0.275503840893	0.472032641397	-0.526453873702	0.65326381461	5.1447940961e-05	3.04929445747e-05	0.156754054585	-0.168704475119	0.985666676659	-2.73336850637e-05	0.404458643616	0.231128639552	0.174220339444	-0.299902469668	0.722925409061	-0.293483121953	0.381548299906	0.161683822143	0.184886121684	0.248970075015	-0.447417275854	0.787592048054	0.379437189237	0.122499792895	0.247519398348	-0.0675952652442	-0.017207778663	0.99379193217	0.287729632854	0.0281202961504	0.464881855249	0.451134024064	0.143864816427
-0.63395049677	1.97543969106	5.14965329311	-0.50052940685	1.95088036397	14.9709666068	0.200263107783	0.199981547363	0.199776170446	0.0482338168444	0.00553726242541	0.00242441900693	0.0486111785663	0.0379817434121	-0.038302926365	-0.0522493691827	0.0124004303958	0.0113016803561	0.564319335931	10.0016449974	-0.995603293101	0.0331272398085	0.668103510437	0.0102751277309	-0.00292478153414	-0.000508850664301	0.00206926266485	0.461832907462	0.315483120789	0.208503177275	-0.674889138365	-0.725536757409	-0.131406143199	0.500101853135	0.276275610392	0.237167355667	-0.0262491135948	-0.221048808889	0.0712119343406	0.513697733206	0.280258406741	0.195173865025	0.0993578445184	-0.0903051668325	0.097422615417	5.94160780942e-05	2.73502780662e-05	3.63780340698e-06	1.54001981449e-05	-5.20806966743e-05	-6.23772304724e-06	0.353869098887	0.101279163984	0.456271996669	0.689260618315	0.158010248765	-0.0346061987426	-0.000366901255233	0.00157815556163	0.275503788788	0.452700871802	-0.543165669345	0.645805320818	5.24831936001e-05	2.78757342808e-05	0.156754052112	-0.137505405793	0.990501015074	-2.77910700817e-05	0.418689243063	0.208558140365	0.180706403139	-0.287340605193	0.741308849165	-0.315250688757	0.396383462265	0.138998797146	0.189755923645	0.229624428539	-0.456091635713	0.797683105793	0.392153330953	0.0997867574798	0.252256090357	-0.0869033919767	-0.0159536055714	0.991935105848	0.287729632854	0.0281202961504	0.464881855249	0.451134024064	0.143864816427
-0.253993460451	2.03053971722	4.98370410221	-0.0686278127995	2.09877403087	15.0728763363	0.199905681743	0.200009422727	0.199815692344	0.327942212338	0.0532811406857	-0.129349294929	0.336770351089	0.133716691539	0.146401574923	-0.0116033138849	-0.0627577078707	-0.00638687725778	0.103628356893	9.71573433516	-1.36223741522	-0.210064649281	0.523818944461	0.00731562739809	0.00105593922703	-0.00153918556206	0.00149715822881	0.488935138685	0.0994579276972	0.24161666129	-0.525651913384	-0.750411407582	-0.243213593149	0.49969454117	0.0783145741165	0.298488676937	-0.180655562123	-0.533203805167	0.164190673495	0.537513618482	0.0755842429294	0.275321736269	-0.0863355265487	-0.403820123085	0.213226774026	6.10349870071e-05	-2.09423030909e-06	2.53638317732e-06	-3.80136715876e-06	-5.53400352859e-05	-1.39381903655e-06	0.341286670563	-0.0789655057954	0.488668933218	0.698340144983	0.111170242062	0.268750818973	0.000436237622184	0.00155808909925	0.275503544865	0.272976016411	-0.652272875058	0.572290072233	5.53201048465e-05	-6.62819116806e-07	0.156754007881	0.114767852943	0.993392338365	-8.47701346054e-06	0.478983803737	-0.0178263416192	0.231116635014	-0.132762518296	0.794133102979	-0.542586569171	0.467126541994	-0.0887607183699	0.246861252778	0.0328882480767	-0.406818545382	0.90456293693	0.443698617454	-0.11529136034	0.311816767383	-0.249732672803	0.104639480007	0.949761291787	0.287729632854	0.0281202961504	0.464881855249	0.451134024064	0.143864816427
-0.120312307385	2.05096306063	4.92349823242	0.0857281642135	2.15201381182	15.1356467779	0.199680990546	0.200115321855	0.199935761617	0.251062041328	0.0565894794104	-0.142626385982	0.348743891812	0.119251739531	0.12717149701	-0.00297984995643	0.0895253494704	0.0510587313011	-0.298117128143	9.85120771149	-1.53063895183	-0.382066352947	0.443302816633	0.00838594019115	0.00338908528052	-0.00107534596963	0.000870922035123	0.481539633761	0.0292396756358	0.240324040334	-0.439180409477	-0.757639787993	-0.235374998305	0.48261731996	0.0192203375513	0.301027135807	-0.244707739501	-0.595540249307	0.227428529308	0.524255956641	0.0166535482603	0.28560890536	-0.167598906121	-0.465655494554	0.276240025139	5.90749300454e-05	-1.11279401466e-05	3.39256150381e-06	-1.15438277143e-05	-5.23375616652e-05	3.67812554064e-06	0.322325477929	-0.116908806369	0.500421020768	0.69644105773	0.122446546687	0.355449852322	0.000617942002366	0.00149085885051	0.275503281833	0.22172687038	-0.671431795904	0.553685117461	5.23031379896e-05	-8.86341037983e-06	0.156753905625	0.174859712973	0.984593357223	-2.68337483239e-06	0.481427378076	-0.0886961581872	0.250175141183	-0.0926130746972	0.755161138607	-0.63049216011	0.473086081326	-0.156975276063	0.276424271145	-0.0223528400808	-0.334176944784	0.940636402029	0.443815169349	-0.173945638131	0.342075372266	-0.289790555062	0.184426170973	0.91779262835	0.287729632854	0.0281202961504	0.464881855249	0.451134024064	0.143864816427
0.0447862726133	2.0826337888	4.82219381599	0.310240507403	2.21711084043	15.209132164	0.199512584504	0.200067115943	0.199972659698	0.286124390399	0.0574877593676	-0.143494759698	0.358912095351	0.13421150257	0.11952852721	0.0311463563514	-0.0287915707159	0.0018242017924	0.138488354906	9.85776762616	-1.6200673857	-0.633153897096	0.282326727513	0.0135633111995	0.00541440565762	-0.00177645453559	9.59837931969e-06	0.465495121794	-0.0841992330819	0.23761032393	-0.298596266623	-0.764672526208	-0.178463976002	0.45475262786	-0.07534200579	0.297470707527	-0.342797643861	-0.63302942387	0.33466341581	0.498705147188	-0.0765093985109	0.2909920371	-0.293959368994	-0.502441007882	0.374942853674	5.53571289455e-05	-2.31164312779e-05	3.34296413526e-06	-1.92556418236e-05	-4.48317703123e-05	-5.13959789416e-06	0.290785614703	-0.158379824632	0.517388919198	0.690817463007	0.150929176141	0.465560652306	0.000834626924429	0.00137593483577	0.275504155973	0.153748887523	-0.690183922059	0.531086204857	5.02693292288e-05	-2.06242838279e-05	0.156754086683	0.248078279446	0.968739988408	7.52077003557e-06	0.473049621956	-0.192816512668	0.284686954307	-0.0487575677279	0.651083636689	-0.755380900748	0.467134141843	-0.250426412101	0.330020636661	-0.077572223471	-0.186836623378	0.978939470776	0.43101408822	-0.249405506309	0.394512471415	-0.313360993376	0.324221389624	0.853364292818	0.287729632854	0.0281202961504	0.464881855249	0.451134024064	0.143864816427
0.306298122018	2.13455498507	4.65435490966	0.674810247661	2.31976937776	15.3244196908	0.199355285626	0.200382701375	0.200310369743	0.143725839226	0.0664368169668	-0.193746005879	0.343082757164	0.050749803239	0.0762091393206	0.0132439483952	0.0479717140029	0.0415491822948	-0.216930696039	9.86049137157	-1.80891344394	-0.92593869278	0.0401746244696	0.00384167612655	0.00680837286225	-0.00416467570044	-0.00297025194699	0.467133072772	-0.23459724282	0.283336563292	-0.063262552906	-0.76645820638	0.000211484885054	0.446484783492	-0.196070269916	0.326521620853	-0.483536106232	-0.564115974666	0.523681185073	0.490915270081	-0.193784627019	0.325463392159	-0.482139007279	-0.431177622692	0.534534437937	5.31198390786e-05	-3.19932943654e-05	3.17149742496e-06	-2.31532033575e-05	-5.02910522349e-05	7.56037375857e-06	0.259450740074	-0.168406159852	0.544713395861	0.653766813394	0.269415816173	0.583999397687	0.000937509569036	0.00129854865051	0.275504461934	0.0964599178814	-0.700499005275	0.532668288909	4.6673577305e-05	-3.03934975127e-05	0.156754236058	0.286339149204	0.958128326302	1.69555887508e-05	0.476945504524	-0.296295992312	0.383950775698	-0.0267228594274	0.398430634295	-0.916522104832	0.468750684607	-0.319727561369	0.453031606296	-0.118407221383	0.10473624748	0.978990693155	0.422724903787	-0.289266512512	0.502142747044	-0.298372101383	0.555113016919	0.682620540877	0.287729632854	0.0281202961504	0.464881855249	0.451134024064	0.143864816427
0.359262028612	2.15365332326	4.58425903171	0.793940405071	2.33931105556	15.3423008765	0.199331787439	0.200405581793	0.200417110451	0.145302211586	0.0483705243002	-0.214242685363	0.36109884018	0.0493713110664	0.0594574785314	0.0449892657047	-0.00300072715598	-0.020673159669	-0.116506909642	9.85451995223	-1.96327331027	-0.982009276022	-0.0286572221044	0.000844416812917	0.0073608019587	-0.00490320529269	-0.00465988627685	0.46552347974	-0.286169366812	0.316317369686	0.00323118970242	-0.753466931122	0.0791458814039	0.443824442416	-0.239636387329	0.350025180045	-0.531522717954	-0.512095268438	0.572694274996	0.488247432743	-0.237356617325	0.349522284627	-0.543110059741	-0.380743006101	0.569419605439	5.15438853337e-05	-3.41268115362e-05	2.69865805813e-06	-2.64535490437e-05	-4.72626751857e-05	-2.53299772274e-06	0.249929420716	-0.168603139989	0.55345358242	0.635238030916	0.31058951859	0.614598544843	0.00096039620993	0.00127963325581	0.27550462379	0.0802292560992	-0.702543868566	0.535159115221	4.64697488719e-05	-3.29327609208e-05	0.156754630494	0.294826000044	0.955550954872	1.97794098759e-05	0.472420093503	-0.325749884738	0.427957127108	-0.0162655353157	0.300251431054	-0.953386334263	0.462010424105	-0.334394857563	0.500429894431	-0.120736270799	0.208528377477	0.960156725352	0.414363984491	-0.2946515446	0.540670922475	-0.270496578546	0.629209075033	0.6150448853	0.287729632854	0.0281202961504	0.464881855249	0.451134024064	0.143864816427
0.398893247014	2.16710079824	4.53580567454	0.877734674492	2.35383309789	15.3563043308	0.199478766766	0.200473015417	0.200424795908	0.142376205006	0.049821074039	-0.212952360795	0.361432252784	0.0533037779233	0.0592001241133	-0.00492700647997	-0.0560580037081	-0.0379895483835	-0.0280257189422	9.34777034111	-1.84838365616	-0.878977327932	-0.0280787835399	-0.000598641014982	0.00539184672853	-0.00610811411062	-0.00490990466844	0.477104832749	-0.305281159627	0.351339360687	0.0471425926296	-0.734844045001	0.139843222909	0.455361914565	-0.25378797941	0.377198568513	-0.569372360024	-0.469420344468	0.5994237349	0.500071603209	-0.251744174915	0.377944872211	-0.590066604307	-0.340793955271	0.585070002645	5.26589460491e-05	-3.41707961183e-05	2.7387425055e-06	-2.78328566561e-05	-4.78799372346e-05	2.66567516313e-06	0.248433941332	-0.159697525451	0.55997829128	0.61198259794	0.354224030212	0.630631538134	0.000933339883925	0.00130062335589	0.275504278773	0.080106334612	-0.702556833793	0.545069417548	4.67868005471e-05	-3.1800107507e-05	0.156754402861	0.284738744222	0.958605156203	1.91749229671e-05	0.479916563363	-0.327688287381	0.467916146753	-0.00131314970934	0.226449093534	-0.973744450697	0.466062020309	-0.325685476287	0.54035648239	-0.132698088695	0.283247875997	0.937684832364	0.415758313414	-0.282021925144	0.571554637143	-0.258557232127	0.678974476535	0.5550489133	0.287729632854	0.0281202961504	0.464881855249	0.451134024064	0.143864816427
0.425322419561	2.17593263979	4.50355660165	0.933851896551	2.36376770799	15.3656162347	0.199509281465	0.200605359947	0.200568598373	0.152849229364	0.0506166413786	-0.197390178216	0.347536088705	0.0903234270867	0.0440090357865	-0.00411929801488	0.0327922956768	0.00469540711035	0.0512917840434	9.67478683827	-1.96411021268	-0.944536273903	-0.071463230273	0.00279554506122	0.00509479341729	-0.00654306858288	-0.00592109280578	0.491201851756	-0.308836951086	0.38194949029	0.0742250746904	-0.714587841598	0.183925021352	0.469259545385	-0.254724615442	0.401319400633	-0.598954803143	-0.438810915334	0.610581227653	0.513834817333	-0.25322943335	0.403386242779	-0.625118469897	-0.313452614326	0.58815985944	5.38670145942e-05	-3.07472571707e-05	3.54266752578e-06	-2.04595954147e-05	-4.8693079546e-05	-4.07381360097e-06	0.249822484928	-0.148334996532	0.564870161276	0.587885466772	0.392922627879	0.639664998505	0.000887581207792	0.0013319489373	0.275505066474	0.0866677355367	-0.701778115027	0.556588730097	4.73827892436e-05	-2.95518950637e-05	0.156754398039	0.26787055507	0.963454910059	1.91475668235e-05	0.489486888269	-0.318845935289	0.500107423579	0.0166827527413	0.174505370784	-0.984303329757	0.472136087338	-0.309430166408	0.571195949319	-0.148955057324	0.334870504527	0.916953793761	0.419671192446	-0.263574880035	0.595836035401	-0.255458840834	0.713663176362	0.504686074408	0.287729632854	0.0281202961504	0.464881855249	0.451134024064	0.143864816427
0.445136324892	2.18265037794	4.4793320974	0.97573135818	2.37100101965	15.3726156893	0.199529728732	0.200543490845	0.200565561033	0.149987767177	0.0560801898163	-0.200285304063	0.330674575246	0.074336486739	0.0443640381945	0.0213443307869	0.0346941039741	0.0233826234383	0.0970611249712	9.47509970095	-1.93523948107	-0.892697770744	-0.0692227288157	0.00345205794705	0.00514495980155	-0.00590536205812	-0.00570385091459	0.500373879113	-0.311146556363	0.407301642799	0.0920213692109	-0.696025054967	0.218612622146	0.478733946842	-0.255363502429	0.421603714245	-0.622968556425	-0.414048579243	0.615200440278	0.523179904194	-0.254360021866	0.424940316978	-0.652767969655	-0.291823181688	0.586347729639	5.45218587573e-05	-2.95047683981e-05	3.16504336081e-06	-2.02700126788e-05	-5.11315658098e-05	4.55217197609e-06	0.250243152613	-0.14021983832	0.568526901567	0.568409596199	0.420605805761	0.646388340588	0.000852101033785	0.0013537965877	0.275504785931	0.0910238932821	-0.701227552861	0.564754006082	4.90271463639e-05	-2.89465947191e-05	0.156754742657	0.255584302392	0.96678677173	1.8000763684e-05	0.494639095616	-0.311696848291	0.525741635516	0.0336155254722	0.134829108943	-0.990166353092	0.474417104074	-0.296649400192	0.595225508367	-0.161856080387	0.374338537849	0.899046436395	0.420574174331	-0.24976138909	0.614014096752	-0.250906698629	0.739312548831	0.46657469599	0.287729632854	0.0281202961504	0.464881855249	0.451134024064	0.143864816427
0.484833400708	2.19594549245	4.43093229021	1.05987612738	2.38580140746	15.3866361292	0.199419772507	0.200639111337	0.20061854946	0.186304971829	0.0396651815567	-0.216137031997	0.354883012477	0.104387813346	0.019087655235	-0.028465646435	-0.0210733525705	-0.0332746060638	0.0524673133484	9.64082721026	-2.17380675434	-0.95297827807	-0.119089639555	-0.0189929913983	0.00574640659907	-0.00741922704467	-0.00680028991623	0.51516105448	-0.312101917089	0.463090901035	0.119062625803	-0.65060146659	0.289068430586	0.49527827778	-0.254039108652	0.467159103147	-0.67401563014	-0.362390827229	0.612910692553	0.539391668001	-0.254178746246	0.474451913697	-0.710240153849	-0.247393573402	0.570586428408	5.48142363618e-05	-2.76265250795e-05	3.32139739787e-06	-2.26902477846e-05	-4.73249342143e-05	-9.0255165813e-06	0.250200181307	-0.123799648855	0.575866004961	0.524628440372	0.47409727451	0.659063758067	0.000781555871473	0.00139672437171	0.275504361604	0.0998130528502	-0.700029006095	0.580675346195	4.95696223652e-05	-2.50741745843e-05	0.156753959893	0.230952066135	0.972965128414	1.32986335809e-05	0.50008235383	-0.294206802187	0.579483738405	0.0761789562651	0.057366683164	-0.995438443162	0.473738745551	-0.268871621003	0.643175898181	-0.189791066942	0.45008803084	0.85871033269	0.418168635145	-0.220619621853	0.65000541235	-0.238370790058	0.78855687544	0.389846751071	0.287729632854	0.0281202961504	0.464881855249	0.451134024064	0.143864816427
0.502109741152	2.20143935956	4.41115989315	1.09485709063	2.39226857209	15.3929778743	0.199532404892	0.200597342518	0.200650271226	0.165341839634	0.0647960711911	-0.186202198158	0.345899950949	0.0422021800739	0.0913228253971	-0.00610321349415	0.0127571718617	0.0458521470798	0.0409939981294	9.84375519422	-2.25008514395	-0.947951470226	-0.148344675662	-0.00150063962856	0.00484370609027	-0.00666323223393	-0.00632623689314	0.519475869426	-0.310997402311	0.487723772175	0.126475456533	-0.628816673213	0.318049943943	0.500745053682	-0.252425734457	0.48742672124	-0.69565571018	-0.340831122353	0.607345751619	0.544449414628	-0.25306819714	0.496215281964	-0.733303793531	-0.229815265015	0.559616398243	5.35694399715e-05	-2.54775066405e-05	2.5112477188e-06	-2.03735510909e-05	-4.61515603316e-05	1.16145100991e-06	0.249834129464	-0.117055967325	0.578859080049	0.504915272132	0.495038467483	0.663914602105	0.000751854520948	0.00141366862045	0.275504196782	0.103360219542	-0.699512167074	0.586883894168	4.94387784547e-05	-2.41575728844e-05	0.156754559973	0.220755449437	0.97532919011	1.35804400457e-05	0.500181206158	-0.286079425986	0.601662851772	0.0964343255805	0.0276337950696	-0.994945990149	0.471309364518	-0.256651433869	0.66281069947	-0.202151716342	0.479949580139	0.840395888623	0.415511902504	-0.20831640484	0.664387319571	-0.231975038553	0.807689614888	0.358785795373	0.287729632854	0.0281202961504	0.464881855249	0.451134024064	0.143864816427
0.505835713508	2.20258147151	4.40728745593	1.10163613881	2.39338826105	15.3943794407	0.19957123707	0.200648984546	0.200645970543	0.170037962388	0.0608304855761	-0.186798856621	0.345866919758	0.0598537763221	0.0804110577855	-0.0184241302874	0.00407187309544	-0.0155653001083	0.116180970185	9.53132804017	-2.05899153937	-0.837491878293	-0.0895737193252	0.00711692142374	0.0043321914081	-0.00726652029291	-0.00689742293471	0.520104128659	-0.310716343512	0.492330384583	0.127658106718	-0.624655482095	0.323346040713	0.5016896177	-0.252050119749	0.491568367395	-0.699964479563	-0.336535183302	0.605942321241	0.545409327435	-0.25275971031	0.501221608802	-0.73842482338	-0.225913595381	0.55681877739	5.43881151633e-05	-2.52877530052e-05	3.22621870241e-06	-2.08319106481e-05	-4.60620289223e-05	-3.74853274593e-06	0.249740197707	-0.115768359317	0.579431635675	0.501039335631	0.498961439864	0.664815500816	0.000746254652721	0.00141589335418	0.27550508536	0.104175098044	-0.699392348755	0.588273838687	4.93837339036e-05	-2.29942566946e-05	0.156754419226	0.218691630498	0.975794019683	9.44720950972e-06	0.500024832889	-0.284381096557	0.606159585548	0.100689360413	0.0217528705151	-0.994662210246	0.470661467291	-0.254186921313	0.666691006992	-0.20463250836	0.485769205188	0.836653031076	0.414882828168	-0.205928182218	0.667132495011	-0.230653059278	0.811303655743	0.35283953627	0.287729632854	0.0281202961504	0.464881855249	0.451134024064	0.143864816427
0.509654128942	2.20362519171	4.40350951485	1.10876706847	2.39500985789	15.3958657041	0.199504224654	0.200638809634	0.20064264772	0.173696742278	0.0386528624866	-0.200333834207	0.366705108822	0.0939607885009	0.0673015874106	0.00858407276464	-0.00908793239346	0.0128616967829	0.105686639298	9.59465084946	-2.22625351024	-0.892537781711	-0.121325666386	-0.00447365948997	0.00527238180486	-0.00729635587854	-0.00657991036696	0.52081069163	-0.310348570449	0.49781808752	0.128815191142	-0.61966247198	0.329516347044	0.502606967574	-0.251650920232	0.495702463946	-0.704250482829	-0.332250160721	0.604459185891	0.546213056741	-0.25245922371	0.50557024836	-0.742852143603	-0.22248016958	0.554346109244	5.36739052762e-05	-2.47952744258e-05	3.31924561173e-06	-1.84211175131e-05	-4.4831721409e-05	-6.85783009754e-06	0.249627533014	-0.114490011519	0.580006332173	0.497135332283	0.502851033878	0.665714956432	0.000738230922863	0.00142057528756	0.275504212929	0.104879175704	-0.699286198043	0.589518415244	4.82466324418e-05	-2.31343116508e-05	0.156754456136	0.216493322086	0.976284097647	1.25125842459e-05	0.499804993333	-0.28255109582	0.61095904131	0.105313544852	0.0155246269276	-0.994288014872	0.469987098821	-0.251813802777	0.670414454756	-0.207044157618	0.491330698872	0.833020216495	0.414181762667	-0.203462031407	0.669968384648	-0.229238214503	0.81502629654	0.346702967284	0.287729632854	0.0281202961504	0.464881855249	0.451134024064	0.143864816427
0.513572680057	2.20464065564	4.3997753679	1.11589703507	2.39659842534	15.3974428758	0.199479096325	0.200629054022	0.200770605719	0.178914694883	0.0631429719301	-0.173798011728	0.353232450375	0.0454776033914	0.135495275921	0.017062563993	-0.0496954843199	-0.022510339421	-0.146669092065	10.016053148	-2.29456032837	-0.964257422479	-0.158671214043	-0.005587076501	0.00560845297639	-0.00760487651358	-0.00821320939212	0.521423336053	-0.30994625598	0.502787839234	0.129789375904	-0.615069214735	0.335117873292	0.50357663314	-0.251158641347	0.500172855428	-0.708885477957	-0.327707090218	0.602673575042	0.547049956289	-0.252079863491	0.510303678585	-0.747616069434	-0.218870261599	0.551516368248	5.36722553949e-05	-2.4442626707e-05	3.28315216228e-06	-1.93703871893e-05	-4.29799581431e-05	4.72276362922e-06	0.249514462024	-0.113023456892	0.580646871896	0.492632598251	0.507264544101	0.666719308681	0.000732970499334	0.00142327715657	0.275504891417	0.105672355067	-0.699166716901	0.590839725894	4.84907336891e-05	-2.32535556958e-05	0.156754266929	0.214353994641	0.976756040735	1.35847417611e-05	0.499569544189	-0.280803029095	0.615421344887	0.109719439633	0.00981926898252	-0.993870192888	0.469185440702	-0.24906416239	0.674644125789	-0.209845884738	0.497618259043	0.828836273904	0.413366453609	-0.200631559465	0.673159270814	-0.22763297833	0.819210151203	0.339745660234	0.287729632854	0.0281202961504	0.464881855249	0.451134024064	0.143864816427
0.574218536529	2.27107375289	4.1323664115	1.4863152415	2.41165525621	15.3895135777	0.199840306603	0.200806402805	0.200846880461	0.0472852585116	0.0756338591073	-0.255076734567	0.351790357076	-0.00732617891741	-0.00789631734166	-0.0232598814788	0.00780092300432	-0.00582071101458	-0.104520833847	10.27786541	-2.98827743981	-0.674081701517	-0.189949508214	0.002270640584	0.00159312129333	-0.00880339736594	-0.00880905740452	0.49960424757	-0.220461667124	0.744924399885	0.0478277969757	-0.336629779539	0.525469074013	0.505217064615	-0.164217544404	0.720673864662	-0.905210190611	-0.184378440927	0.381775726947	0.534194074443	-0.167726958659	0.754623060252	-0.932411991728	-0.124776462667	0.290048582455	4.45199727626e-05	-8.22449519801e-06	1.87418827777e-06	-7.85842581261e-06	-3.91377646451e-05	2.18412126042e-06	0.23867221901	-0.036149471167	0.60695283399	0.237750261198	0.665939280764	0.694913544365	0.000303310421949	0.00157014164176	0.275503706294	0.165322486019	-0.687509191256	0.653027017746	4.13051122397e-05	-7.53575034492e-06	0.156753528396	0.079097862514	0.996866855163	4.13617062534e-06	0.433094835018	-0.152213073431	0.814452853005	0.398330045885	-0.143762025221	-0.899114769526	0.382323550137	-0.101903459935	0.832584560472	-0.384178524127	0.677280733217	0.627157331879	0.339779817603	-0.0632842628669	0.786234751345	-0.180904522831	0.948421193791	0.0878514391811	0.287729632854	0.0281202961504	0.464881855249	0.451134024064	0.143864816427
0.576371202814	2.27624400175	4.11103689596	1.51425311796	2.41172558535	15.3874392191	0.19990624321	0.200765867706	0.200858749982	0.04164708714	0.0660845831238	-0.266984781198	0.36207097493	-0.0109727082957	-0.0179646867518	-0.00219338213192	-0.0028953368362	-0.0136506538087	-0.124363822555	10.2646481514	-3.02987953645	-0.637879433359	-0.188355559907	0.000561974804469	0.00114443481282	-0.00850502064491	-0.00900606839886	0.491948655868	-0.210231472262	0.762373589594	0.0302911921801	-0.311956905963	0.531823606508	0.499792448949	-0.154201989127	0.738263029136	-0.917707916785	-0.179211257526	0.353658448179	0.526651504531	-0.158097499213	0.773762342617	-0.941730755583	-0.124285298861	0.260530808091	4.26310999037e-05	-7.4475232139e-06	1.84317327831e-06	-7.18753938602e-06	-3.83782230034e-05	-5.25420595943e-06	0.236807076462	-0.0292319549975	0.608961628869	0.212191734522	0.674514872449	0.696275130491	0.000256412030793	0.00157934499213	0.275503400469	0.171896979166	-0.685893467785	0.657823688545	3.89950812086e-05	-6.37851201571e-06	0.156753310117	0.0651854749846	0.997873164687	3.74807635849e-06	0.42209338189	-0.140969440395	0.8275225864	0.425296177552	-0.143628312567	-0.885456194455	0.37052170064	-0.0904932497695	0.841924481351	-0.401074465063	0.682558181963	0.610932076623	0.330013284972	-0.0526295702507	0.792999884419	-0.1788225488	0.954874391871	0.073229369574	0.287729632854	0.0281202961504	0.464881855249	0.451134024064	0.143864816427
0.582845072415	2.29176515031	4.04708914259	1.59803656858	2.41192617467	15.3812363549	0.199995577737	0.200801003615	0.200804364309	0.0395556927913	0.0647127131	-0.266589607507	0.359003452561	-0.0123960702677	-0.0197669768159	0.00509712394522	-0.00824838180391	0.00204147190768	-0.189130087327	10.3093724157	-3.17804752513	-0.531138642909	-0.179591002944	-0.000467221731526	0.000323992969253	-0.00890990869709	-0.008305288294	0.466170421519	-0.184877257061	0.805731277676	-0.0233699281412	-0.247190236844	0.542609053546	0.479503190421	-0.128856586762	0.784134870916	-0.946897485445	-0.168775091489	0.272982746216	0.499818301862	-0.133853662658	0.823627098956	-0.961339220433	-0.125793852059	0.176199867651	3.88563817289e-05	-4.83851703305e-06	1.87624356524e-06	-3.79889410011e-06	-3.35751992552e-05	2.85849307149e-06	0.230960425018	-0.011826903308	0.614090815087	0.1443666571	0.692208236982	0.699425325876	0.0001388829746	0.00159154956542	0.275502995751	0.188808676296	-0.681435377658	0.669166587042	3.62657272962e-05	-5.22773532075e-06	0.156752853423	0.0296124517654	0.999561454731	5.10692317853e-06	0.38811025456	-0.113752028241	0.859192464642	0.496451866674	-0.134920591915	-0.844741353883	0.335146018669	-0.0628682668096	0.864057455029	-0.44551666119	0.690815218031	0.567963014011	0.301581886707	-0.0271427713006	0.808731877571	-0.172358995777	0.969355820184	0.0404684568586	0.287729632854	0.0281202961504	0.464881855249	0.451134024064	0.143864816427
-0.0853015321922	2.58651814373	2.68438399495	2.91226886962	2.08680712698	14.8157797164	0.199911432138	0.199829868716	0.200292202173	-0.251715045725	0.079302598535	-0.349993296169	0.313523201643	-0.0970326187805	-0.183136908817	0.00109610100302	-0.00701267704239	0.0147550957272	-0.0112907932588	6.24741928337	-1.33181807872	0.135107671573	-0.558788759717	-0.0110106423623	0.00112542925111	0.000813804976569	-0.00305652049236	0.179069184261	-0.220452327711	0.536875486232	-0.971777402648	-0.116266296547	-0.118494524433	0.150925869844	-0.274361773261	0.543751997956	0.00972301416214	-0.00106717362749	-0.566749770269	0.155393458491	-0.26630540174	0.499840524081	0.19230969264	0.021192396409	-0.555643582044	1.0056831433e-05	-9.21452493306e-06	7.23462146218e-07	-7.86737656349e-06	-9.43299175224e-06	1.32731784743e-06	0.0103323179437	0.0909811365099	0.675145977435	-0.704525658818	-0.0601336349783	0.690803784781	-0.00157226720715	0.000199202301792	0.275500616989	0.52296675831	-0.475953010127	0.580813945956	9.51036163653e-06	-8.49421839097e-06	0.156750557349	-0.658845223449	0.752278519738	1.50302354906e-05	0.0635497082488	-0.193807554677	0.527468990728	0.100161523805	0.702122024745	0.237031311392	0.00821653657712	-0.160652090694	0.564110650926	-0.24877849873	-0.0943083009849	0.508743485409	-0.00400733786242	-0.106844328793	0.613666045403	-0.120566621636	0.580644793914	0.760587120583	0.287729632854	0.0281202961504	0.464881855249	0.451134024064	0.143864816427
-0.663369583694	2.73450798825	1.95562299952	3.48773489573	1.82150065287	14.3946943247	0.199251799145	0.200077276477	0.200162072663	-0.283466484715	0.0707871189125	-0.353726055494	0.263481493082	-0.125309477304	-0.204510268113	0.00569647968284	0.0347337700743	0.0684080282165	-0.00737976761367	1.14733298613	2.45449449456	-1.01681526495	-0.686447955143	-0.00968602080764	0.00776776375097	-0.00124280856912	-0.00121869628104	0.180701176431	-0.233643990448	0.54115061738	-0.962961716092	-0.105693696385	-0.140679180807	0.151128185694	-0.288066255335	0.543575709906	0.0523877893059	0.00756729182014	-0.573891424662	0.157054006195	-0.277160940378	0.501272279835	0.233951974668	0.0271168293506	-0.559081869875	9.9123850369e-06	-8.22937166694e-06	6.469648898e-07	-5.40637795245e-06	-9.43595639541e-06	1.51730702258e-06	0.00648098069253	0.0815334868641	0.677260635244	-0.703523416492	-0.0709170287879	0.693182320574	-0.00157895724433	0.000146677156855	0.275500551616	0.525002380196	-0.473704740928	0.568958303691	9.31779101972e-06	-7.87643069315e-06	0.156750375137	-0.671514161974	0.740991720625	1.39743466002e-05	0.0661421666595	-0.203774781783	0.52974383829	0.0742877563397	0.701449692094	0.272963402673	0.0114752568566	-0.170340259099	0.5668049392	-0.239813801713	-0.0976520374112	0.501558360471	-0.00166352122845	-0.116816377533	0.616258017728	-0.123776481518	0.580953324923	0.766503943718	0.452723425627	0.0290041860938	0.38042020599	0.548790403207	0.226361712813
-1.34714122272	3.24378994474	2.48273636515	3.92971810461	0.547505224762	12.916935622	0.199789147308	0.199190785564	0.199116177052	0.00839857073276	0.0746192762091	0.401182078641	0.126288324687	-0.232195171963	-0.472861348332	-0.245560066795	0.170610978633	0.190543071765	-0.0589261508066	-4.42939574482	3.59695384989	-0.51080257543	-0.0176409702941	-0.106397148208	-0.000118282459623	0.0089808702853	0.0104616091945	0.266160480532	0.355496971026	0.586901789133	-0.456935021194	-0.695075563719	-0.134836103478	0.316984508746	0.339102611102	0.556193529302	0.393543037765	0.112668496889	0.188924070274	0.295444242361	0.369775181576	0.531523730356	0.486340977567	0.244888922081	0.217661390135	1.67656384444e-05	1.57490551231e-05	1.12419955897e-06	1.03645885624e-05	-1.29467508997e-05	-2.48445503898e-06	0.0323187410784	0.0708112633342	0.678052804489	0.398512247539	0.584093955596	-0.10591188384	-0.00142092027003	0.000711690010979	0.275501679124	0.431410067125	-0.560270302076	0.63164040976	1.61741474246e-05	1.50238225516e-05	0.156751374266	-0.532176443061	0.846633470333	1.90009494809e-06	0.227902458124	0.271819139509	0.511557504427	-0.686650078152	0.505502579566	-0.010857900446	0.164014783646	0.235901477511	0.499871401019	-0.591741213223	-0.24934085812	0.734494774608	0.108467857813	0.202839434348	0.536769388542	-0.166031408155	0.363017199517	-0.586103046646	0.452723425627	0.0290041860938	0.38042020599	0.548790403207	0.226361712813
-1.3440302407	3.25062129262	2.51772680663	3.92310802898	0.526063209342	12.8966054498	0.199802336132	0.198939797283	0.199083260707	0.0482998785998	0.0570123381577	0.325194428779	-0.117037115639	-0.194586535026	-0.123778273336	0.0998224877625	-0.0784181281106	-0.104083541382	0.0211423264385	-4.42852899492	3.26480671302	-0.59846442903	-0.0126066753561	0.0236316074727	0.00320365781233	0.00900046352023	0.00784450603382	0.270915337583	0.368496194212	0.570380907243	-0.475861059568	-0.698564587654	-0.128305497195	0.321943804737	0.349560012423	0.541513151251	0.371077330231	0.104106947513	0.180483679717	0.301498526251	0.379363759936	0.515023788988	0.467096925683	0.236893973458	0.207828178364	1.76392360394e-05	1.71324073454e-05	9.41827805523e-07	1.26528624067e-05	-1.49239567245e-05	2.07674273008e-06	0.0394769428963	0.0860396499983	0.674433086171	0.408277582737	0.577309044127	-0.118775171761	-0.0014213452966	0.00071019832852	0.275501585474	0.443602415081	-0.550667737484	0.63796817982	1.66397989976e-05	1.59722685554e-05	0.156751241379	-0.532866797208	0.846199135011	2.19326875772e-06	0.232318333148	0.282080566116	0.498432485633	-0.668195232942	0.517620393928	-0.0243489968174	0.168332856296	0.246041507231	0.488482026728	-0.588073012298	-0.239144284105	0.742257105904	0.113523998154	0.214297769228	0.527231035777	-0.158859813593	0.347145587124	-0.5918878761	0.452723425627	0.0290041860938	0.38042020599	0.548790403207	0.226361712813
-1.34157015918	3.25610226973	2.5457618312	3.91778972237	0.508845699662	12.8802358598	0.19974539278	0.199036917039	0.1991696982	0.0402298858209	0.06443767871	0.346009372305	-0.0925340636847	-0.215925548736	-0.196092394435	-0.0331467714092	-0.0236129403472	0.00671502093119	0.0287435937818	-4.39977370919	3.19375891071	-0.543888741978	-0.00608499442643	0.00459029723121	0.0024433970601	0.00857731724804	0.00808811697027	0.274879845346	0.378950862341	0.55509531023	-0.491974871054	-0.700980403171	-0.122008849436	0.325993748742	0.357911738768	0.527905624023	0.351288242196	0.0971901164314	0.173080205455	0.306507057932	0.386926659585	0.499845294379	0.449920806637	0.230301710905	0.199119376261	1.87847711147e-05	1.84805838779e-05	1.00970120073e-06	1.3593278605e-05	-1.62542309237e-05	3.71379948463e-06	0.0460977422566	0.100198338466	0.670399426446	0.417999299739	0.570308434731	-0.131496357805	-0.00142137686769	0.000710113244542	0.275501744386	0.454543126675	-0.541672138005	0.643563967937	1.75016209643e-05	1.73195990129e-05	0.156751366784	-0.533422335479	0.84584904778	1.63082405316e-06	0.235863641265	0.290249293161	0.4862223877	-0.651838001633	0.527311335449	-0.0359103815214	0.17170034566	0.253985257383	0.47806254742	-0.584619121491	-0.229985927266	0.748984665993	0.117535855534	0.223423384749	0.518451436159	-0.152413176069	0.332841014618	-0.596682003153	0.452723425627	0.0290041860938	0.38042020599	0.548790403207	0.226361712813
-1.33663711148	3.26702033057	2.60177723366	3.90730047503	0.474554039254	12.8475735697	0.199950053469	0.199212697792	0.199077381818	0.0280268665059	0.0617601009461	0.340906381946	-0.0687132113207	-0.207512872617	-0.19234069711	0.000202506603649	0.0163628999902	-0.00240618015024	-0.000797979999856	-4.21043213167	3.09123322286	-0.521013132294	-0.0114952772733	0.00225300301793	0.000730281913785	0.00721926879444	0.00892006925351	0.282114958732	0.398283600216	0.523462637981	-0.522303493198	-0.705517335356	-0.108744718031	0.333291347731	0.373394244947	0.499929279163	0.310805354907	0.0832595415517	0.159396826763	0.315700109424	0.400529514566	0.468856471445	0.414286483529	0.216918954941	0.182716722066	2.05841640838e-05	2.13979487469e-05	1.485982348e-06	1.47966465805e-05	-1.73639637538e-05	1.82925140775e-07	0.0581901421532	0.126330270442	0.661204192273	0.435890023623	0.556753097416	-0.155204482444	-0.00142127485353	0.000709709001873	0.275502051503	0.475023198066	-0.523805062402	0.653668684836	1.90071034671e-05	2.04238121724e-05	0.156751953659	-0.534480812412	0.845180608277	-1.98878706664e-07	0.242192059629	0.305074597288	0.461418954038	-0.619181320947	0.544859544654	-0.059616207072	0.177721153145	0.268458305729	0.456871938913	-0.577783714636	-0.211958485312	0.761607793201	0.124771277445	0.24012359281	0.500538887123	-0.139920672285	0.30515761389	-0.605396714937	0.452723425627	0.0290041860938	0.38042020599	0.548790403207	0.226361712813
-1.33601569498	3.2684021106	2.6087794593	3.9059865125	0.470230294961	12.8434893916	0.19969114474	0.19902291626	0.199126169969	0.0288799548593	0.061767411614	0.339468810986	-0.0721888780475	-0.207136647812	-0.189520202344	-0.000574109776078	-0.0375754386537	-0.0456764681164	-0.0165240450056	-4.27016737635	3.07291683937	-0.519977082075	-0.00484927056633	0.00383250804337	0.00331160367922	0.00857770053824	0.00799948463362	0.282850371214	0.400254296861	0.519907552629	-0.525499868137	-0.705956452872	-0.107209907065	0.334024933358	0.374970370475	0.496793092375	0.30631249217	0.0817528201015	0.157976649201	0.316639185587	0.401873499189	0.465402499709	0.410306839103	0.215461458295	0.180986621936	1.97139246945e-05	2.29659359611e-05	1.56603916632e-06	1.63957716199e-05	-1.32187081086e-05	3.79361377275e-06	0.0598002853443	0.129839680942	0.659791066994	0.438304220589	0.55485481571	-0.158435118481	-0.00142057001157	0.000711215594345	0.27550236395	0.477731600247	-0.5213362585	0.654965437833	1.9256303219e-05	2.11199423807e-05	0.1567519299	-0.534626431364	0.845088503224	1.44734372131e-07	0.24296199237	0.306903166943	0.458044359168	-0.614807627689	0.547021851042	-0.0628388171418	0.178538046069	0.270457383082	0.45365753051	-0.576762857283	-0.209283435643	0.763414442879	0.12574834204	0.242409518948	0.497864145838	-0.138109864698	0.30115749317	-0.606603613203	0.452723425627	0.0290041860938	0.38042020599	0.548790403207	0.226361712813
-1.33230561033	3.27663213306	2.6508070839	3.89805204768	0.444411917987	12.8189799628	0.199828922371	0.199154614128	0.19917125689	0.0409866150583	0.0612974910911	0.341181161611	-0.080363905162	-0.207161628214	-0.189236208595	-0.0238094766255	-0.0276925650502	-0.0415270287677	0.0161306139312	-4.32785752888	2.94335512188	-0.482076225649	0.00975249988185	0.00717009309881	0.00170147432479	0.00735955006486	0.00759010944317	0.286931427532	0.411024792204	0.498790842373	-0.543460421427	-0.708297291584	-0.0980853851949	0.338066413859	0.383626367864	0.478047822859	0.279838803164	0.0731316989758	0.149816625412	0.321789110609	0.409015784732	0.445143555486	0.38699990797	0.207215207068	0.171085919691	2.14479180879e-05	2.4729524784e-05	1.5469539964e-06	1.86611061903e-05	-1.63334224312e-05	-4.41272050205e-06	0.0673268674743	0.14629180509	0.652570435451	0.449854380279	0.545531514776	-0.17391176952	-0.00141940335164	0.000712551800184	0.27550276601	0.49020251238	-0.509628482502	0.660840369261	2.03450478496e-05	2.29765575594e-05	0.156751871941	-0.535266206159	0.844683424661	-5.24297059137e-07	0.246450584483	0.31516559349	0.441317967748	-0.593431792139	0.556895021191	-0.0784679525052	0.181906346266	0.278740512679	0.439094681787	-0.572102994803	-0.197201540014	0.771333127346	0.130014603399	0.252414362155	0.48522409363	-0.129683107521	0.282491778572	-0.611891956544	0.452723425627	0.0290041860938	0.38042020599	0.548790403207	0.226361712813
-1.16042724589	3.50397928902	4.64715029966	3.52302642581	-0.835334500142	11.8305687847	0.199713545641	0.19924254799	0.199226192894	0.0309237807227	-0.00273722889505	0.34977571208	-0.0669759026475	-0.236250677007	-0.122497398855	-0.00876492238636	-0.0015850467593	0.0602909444157	0.0164942335679	0.498499432247	-3.72974819021	0.566902449548	-0.348020162411	0.00581724919702	0.00300568400887	0.00674128853327	0.00805893088614	0.291849494625	0.502674398556	0.484187539398	-0.82744617346	-0.388046911883	-0.0411053505072	0.343832716436	0.471045959031	0.478841817635	0.207057057902	-0.224354637737	0.581085941209	0.340721434027	0.500048143451	0.445410304406	0.366179200408	-0.15629499102	0.600652329765	2.85099118482e-05	4.21932319983e-05	2.72791317654e-06	3.50651609529e-05	-2.10942913251e-05	5.66452566127e-06	0.0939070085646	0.231350736868	0.600756143638	0.432088708437	0.559700344868	-0.185592489952	-0.00144309508573	0.000658267916516	0.27550390527	0.561167738368	-0.430249388644	0.683005578115	2.67640353713e-05	3.75082626523e-05	0.15675297448	-0.555314252867	0.831640594912	-5.11792897162e-06	0.26380267816	0.414908814879	0.408486737427	-0.563544044021	0.672970529667	-0.123610398184	0.202518589869	0.375975945054	0.393407115088	-0.542565448443	-0.322772655222	0.736236968529	0.152058780879	0.342741370946	0.435663443393	-0.124117793303	0.293601678012	-0.666278281669	0.452723425627	0.0290041860938	0.38042020599	0.548790403207	0.226361712813
-1.1586708163	3.50432757394	4.66816506464	3.5190751191	-0.849509722387	11.8223640092	0.199788264653	0.19924266923	0.199216175198	0.0318044706759	0.0122732132458	0.348570912533	-0.0666698709012	-0.232911096242	-0.142725416923	-0.0288550020556	0.0188581527279	0.000149788913865	0.02776529199	0.605462137928	-3.80959708742	0.579589998488	-0.358457454843	0.00488695832779	0.00205759308121	0.00694450810937	0.00755769627794	0.27784119034	0.511435280178	0.504225182222	-0.812190969618	-0.408081129899	-0.0535144720709	0.330814595108	0.48209414348	0.499836505336	0.2159972223	-0.243073547341	0.593752505166	0.327809580133	0.51207574678	0.467176296407	0.372337116459	-0.171351820009	0.615680263403	2.68766519948e-05	4.17350991495e-05	2.70839062264e-06	3.47561801224e-05	-2.11181539344e-05	-5.83406058402e-06	0.0868172989237	0.228445214532	0.604754190129	0.411863875465	0.574750448689	-0.176431675003	-0.00145957801146	0.000626579464789	0.275503413371	0.562438324329	-0.428582941572	0.679442785187	2.45083868655e-05	3.73942696012e-05	0.156753274468	-0.563650684057	0.826013259542	-6.18537257577e-06	0.255378360014	0.425475231465	0.424412555175	-0.581717632929	0.671883631164	-0.128247896844	0.195868485563	0.385137182534	0.40639630098	-0.542635025085	-0.350255860506	0.72633381243	0.145352550747	0.348512016038	0.445996202657	-0.133464902761	0.31477957878	-0.674578934482	0.452723425627	0.0290041860938	0.38042020599	0.548790403207	0.226361712813
-1.1580747658	3.50465108016	4.67516453528	3.51776866558	-0.854175414967	11.8194093556	0.199651247262	0.199289387814	0.19919121887	0.0320935213922	0.0186180667841	0.350267604075	-0.0660012352256	-0.231995764061	-0.161622465489	0.0381428336613	-0.0154003056611	-0.0293849627174	0.00317594633703	0.586571328631	-3.79846682865	0.578803955318	-0.359734885594	0.00271935851437	0.00409774551771	0.00613473726191	0.00751191178478	0.273626249141	0.513744819293	0.51024410395	-0.807521129367	-0.413806121472	-0.0572690931035	0.327222880513	0.484789569925	0.505572078396	0.218476778178	-0.248161194318	0.596928847983	0.324047303021	0.515200089001	0.473448854081	0.374130775178	-0.175704665769	0.619710088786	2.6079790955e-05	4.28592172992e-05	1.98350111044e-06	3.61676096667e-05	-1.93595935366e-05	-1.17911277129e-06	0.0851344281691	0.227703171261	0.605707082029	0.406870341707	0.57829201715	-0.174181612901	-0.00146070017927	0.000619974780779	0.275503821835	0.562784059962	-0.428131912371	0.67844451015	2.57658367021e-05	3.99215972826e-05	0.156753468624	-0.566955661104	0.823748308967	-7.71416568488e-06	0.252968821959	0.428232875635	0.428903244171	-0.586629545328	0.671558724092	-0.129319963194	0.194080835055	0.387411356599	0.409839908173	-0.542543791973	-0.357335924575	0.723612320168	0.143619824742	0.34990234103	0.448667921718	-0.135862146608	0.320124317016	-0.676465276672	0.452723425627	0.0290041860938	0.38042020599	0.548790403207	0.226361712813
-1.15509304043	3.50731853755	4.71016996863	3.51120735021	-0.877162911365	11.803541955	0.199846492735	0.199206395957	0.199172894638	0.0327391800772	0.0281745047596	0.349985367604	-0.0639044930131	-0.228499662994	-0.165297341471	0.0577950551906	-0.0366810777565	-0.00922809203495	0.00369334346551	0.491510810592	-3.82704475199	0.588916282328	-0.356987113339	0.00407195038221	0.0023418128514	0.00675184846547	0.00789672305915	0.252709115476	0.523458165636	0.538885109559	-0.784549273117	-0.440752947848	-0.0751768895818	0.307850777772	0.497388528657	0.535115411119	0.230644957561	-0.273822092817	0.612460740309	0.304512076276	0.529274380748	0.504482066046	0.382196017396	-0.196898850474	0.638987119139	2.32128145865e-05	4.21538662395e-05	2.29314405589e-06	3.61616977798e-05	-1.69270738231e-05	6.0029797321e-06	0.0755066310214	0.223078042038	0.611158185138	0.377415910607	0.597935707387	-0.161209664406	-0.00148165454946	0.00057248742279	0.275503305372	0.564562488813	-0.425780887042	0.672865693133	2.25022059699e-05	3.83910258432e-05	0.156752770762	-0.579540983796	0.814943094207	-6.96251172945e-06	0.239420201581	0.441784070626	0.453000473655	-0.611693073408	0.669203592417	-0.135056551991	0.183589714471	0.399144771463	0.42923462507	-0.541668425678	-0.395716938848	0.707813899778	0.133666584137	0.356921040731	0.463683150025	-0.148828366524	0.349234924625	-0.686067331888	0.452723425627	0.0290041860938	0.38042020599	0.548790403207	0.226361712813
-1.15390081401	3.50843552141	4.72417051969	3.50858288185	-0.886364545352	11.7971513501	0.199733012983	0.199267934638	0.199223646494	0.0307677456005	0.0252730872371	0.349638513407	-0.0676327264964	-0.231706260155	-0.152277352043	-0.0388442368982	0.0137025772686	0.0846038038272	0.00137800170719	0.420614510808	-3.83153432149	0.590655489983	-0.351854144599	0.00653284932817	0.00251021754573	0.00664029792458	0.00832752333763	0.24408720376	0.526590372502	0.550455182352	-0.775026177488	-0.451026222952	-0.0824232090849	0.299938888378	0.501579425361	0.546856104363	0.235384091358	-0.283943415236	0.6181480822	0.296344648401	0.534130313158	0.517078832638	0.38536997586	-0.205448534801	0.646159527027	2.3640945761e-05	4.15242865099e-05	1.98462578532e-06	3.51953401603e-05	-2.05169915795e-05	1.66345907984e-06	0.0718707862249	0.221133591143	0.61323450939	0.365753661656	0.605141438243	-0.156144447253	-0.00148919141844	0.000553910459311	0.275503898763	0.565262689761	-0.424849311517	0.670466770803	2.18658266007e-05	3.8551143192e-05	0.156753380741	-0.584625576737	0.811303231568	-8.94346978533e-06	0.233826909477	0.446538535927	0.462644613488	-0.621126627529	0.668096741781	-0.136952513355	0.179165009859	0.403414406588	0.437192107928	-0.541049900859	-0.410794336606	0.701061024233	0.129562832178	0.359406598193	0.469823139612	-0.153964350875	0.360719483674	-0.689341236939	0.452723425627	0.0290041860938	0.38042020599	0.548790403207	0.226361712813
-1.14982750807	3.50795762329	4.77317884014	3.49939727651	-0.920062052011	11.7794741291	0.199657197696	0.199231747197	0.199359329182	0.0314243488084	-0.0416716840883	0.350555638426	-0.0617130911482	-0.253597233023	-0.101699705899	0.039943089576	-0.0424959350872	-0.0250073260303	-0.0125549394958	0.316572034238	-3.86855095793	0.605640721756	-0.348843389651	0.00131745700216	0.00405624366447	0.00644018746961	0.00587458510108	0.208850081038	0.534974370583	0.596227034445	-0.735671497713	-0.489272801984	-0.111431590834	0.266216215957	0.514421823397	0.594959338298	0.254421469308	-0.324624893498	0.638030773863	0.262089576082	0.54913106909	0.567869448335	0.397316173177	-0.239776369531	0.671889986195	2.09699392568e-05	4.28507508093e-05	1.83338758306e-06	3.50931588363e-05	-1.55824389872e-05	4.93398941876e-06	0.0584391310026	0.21313162665	0.620883323312	0.319840683114	0.630615097422	-0.136772409994	-0.00151351218535	0.000485492433407	0.275503644764	0.56788617288	-0.421334217738	0.661053119984	2.04677068213e-05	4.04587995226e-05	0.156753234256	-0.602857049135	0.797849219355	-9.98697269452e-06	0.210357271039	0.46232523089	0.501379614429	-0.655870071547	0.662757549213	-0.142942609563	0.160846579113	0.417761364634	0.468808208456	-0.537376236385	-0.467338667694	0.67288412591	0.113091398017	0.367402571868	0.493993398566	-0.173535577829	0.403965426884	-0.699074716145	0.452723425627	0.0290041860938	0.38042020599	0.548790403207	0.226361712813
-1.14871597226	3.50580168717	4.78717580036	3.49676142903	-0.930405240358	11.7766036289	0.199882783159	0.199177655468	0.199101356521	0.0317963299723	-0.0665003348733	0.351160506015	-0.0579080817985	-0.264855792796	-0.0714522061267	0.0542468205123	-0.0585209826121	-0.0214058340277	-0.00640709890809	0.332446840572	-3.85032786032	0.616408107708	-0.350924771719	0.00277427605067	0.00194342610547	0.00682085581448	0.00849032673332	0.199913492453	0.53604667216	0.607521566511	-0.725491946972	-0.4981967133	-0.118746963897	0.257465919588	0.516558558601	0.606998970201	0.259082480669	-0.334659430128	0.642206461873	0.252633890023	0.551922475838	0.581362438463	0.400273812655	-0.248859413175	0.67792697988	1.93750965712e-05	4.1957206545e-05	1.85541427067e-06	3.39038563653e-05	-1.53403705018e-05	6.0280192388e-06	0.0548809531886	0.210735986976	0.622929244595	0.306861036439	0.637033621924	-0.131392864592	-0.00152081474903	0.000464473370163	0.275503495671	0.568614462421	-0.420349928163	0.658189710324	1.87016248904e-05	3.88153826703e-05	0.156753000681	-0.60820659767	0.793778768511	-1.0565460576e-05	0.204082228184	0.465547247772	0.511388364239	-0.664075697143	0.661189461931	-0.14404598452	0.156023947229	0.420759355716	0.476890626175	-0.536143547895	-0.481015227451	0.665343811776	0.10891162988	0.368947804442	0.500071016214	-0.178301320642	0.41438050111	-0.700734176376	0.452723425627	0.0290041860938	0.38042020599	0.548790403207	0.226361712813
-1.14554739082	3.49268707861	4.82917158736	3.48888936534	-0.963914655408	11.7752317435	0.199788999047	0.199292624073	0.199118317068	0.0148276395383	-0.174611606818	0.350936475995	-0.0823971770425	-0.292208213886	0.0690289337209	0.0583340034333	-0.0178418942654	-0.0810350157559	-0.0843119755622	0.209462775047	-3.83038328214	0.612139531589	-0.340766164838	0.0105234620111	0.00292213911421	0.00607796057747	0.00772442944733	0.16951251687	0.536571229789	0.645295454367	-0.690511998903	-0.525791835849	-0.143314466676	0.228450577464	0.520287585885	0.646134308408	0.274077231373	-0.36716274225	0.653817444517	0.223340822605	0.557083874933	0.622378830185	0.40898409811	-0.276553259879	0.693959416014	1.6748265319e-05	4.18760415639e-05	1.75534364846e-06	3.2452693231e-05	-1.30805721843e-05	4.98672311441e-06	0.0441654063171	0.202788230329	0.629130169027	0.265421396459	0.655387307217	-0.114569114163	-0.0015412799142	0.00040300714432	0.275503066506	0.570868854948	-0.417276746649	0.648874882667	1.58816128549e-05	3.94631144571e-05	0.156752868674	-0.623749365859	0.78162441584	-1.22866071555e-05	0.182820010068	0.473725754978	0.544527555536	-0.689317731329	0.655420118018	-0.146396612955	0.139075142973	0.429073718604	0.504706614594	-0.531121468232	-0.525940361419	0.638431520943	0.094079760416	0.37296541622	0.521464666651	-0.194551845431	0.449783371754	-0.704450326057	0.452723425627	0.0290041860938	0.38042020599	0.548790403207	0.226361712813
-1.1357856528	3.41742723375	4.9692924629	3.4624938788	-1.08600955923	11.8042750548	0.199995831369	0.199126196021	0.19898467493	0.0201465079492	-0.176981390235	0.349882071216	-0.073378608326	-0.296552889634	0.056791292973	0.0449724495951	0.00773829357674	-0.0713281754722	0.0107791736947	2.06002690174	-4.44003346043	0.716710857748	-0.485224034221	0.0127019714729	0.000720200120997	0.00799804198418	0.00915791963518	0.0723684174047	0.507146766092	0.761998054429	-0.569607467877	-0.592692049703	-0.224111882534	0.132617467688	0.499256469536	0.769488313772	0.321165343295	-0.469376551057	0.668264007458	0.125014767976	0.540016230866	0.753978914511	0.434241402601	-0.367947933513	0.723546736557	8.06021737769e-06	3.78483623678e-05	1.96295471314e-06	2.52862677949e-05	-6.22888517884e-06	3.47828855467e-06	0.0151058684531	0.173407645299	0.646745383643	0.128106552552	0.695398254609	-0.0608565266865	-0.0015829068075	0.000198373764508	0.275502587879	0.577831862653	-0.407574241157	0.614401018437	7.69063709732e-06	3.56932485842e-05	0.156752448698	-0.671749829239	0.740778081555	-1.38915586606e-05	0.109958351834	0.474538070567	0.653550607726	-0.75295387367	0.631995476146	-0.139720012839	0.0809790555583	0.435803549746	0.597152419508	-0.506561577713	-0.655505674691	0.53880082217	0.045430604282	0.371227187196	0.592047482985	-0.244178800444	0.555258490258	-0.693913460057	0.452723425627	0.0290041860938	0.38042020599	0.548790403207	0.226361712813
-1.13430111519	3.40679611478	4.99027357464	3.45857635787	-1.10435135413	11.8080293839	0.199944308036	0.199174043042	0.199094409914	0.0288670629412	-0.184806857616	0.354486151899	-0.0580183793725	-0.298786470184	0.040972189322	0.0660543472642	-0.0507516826238	-0.0530638519375	0.0356049616379	1.88649282572	-4.32257180869	0.718575376094	-0.460095380925	-0.00419477542568	0.00144625328843	0.00693467085645	0.00824321210052	0.0569248099723	0.497824994274	0.780314846954	-0.548583591732	-0.600488006692	-0.23774799828	0.116983066056	0.490866066627	0.78916594371	0.328812553516	-0.485914538726	0.667196018866	0.10898260719	0.532176612292	0.775029772268	0.437954463656	-0.383222804867	0.725040949048	7.33724396894e-06	3.69128186876e-05	1.6876774884e-06	2.70369518236e-05	-7.40053810826e-06	-3.70435166163e-06	0.0112085672459	0.168220798534	0.649260139892	0.105621591341	0.699167387206	-0.0522690888407	-0.00158680782489	0.000166569664564	0.27550272703	0.578897995075	-0.406058226531	0.608377259129	6.64606768934e-06	3.49725298859e-05	0.156752369728	-0.679140571727	0.734008230933	-1.38286295755e-05	0.0978172470834	0.470809560977	0.671520885946	-0.760773272813	0.62761289097	-0.136478823895	0.0710038707969	0.433841457772	0.61299985092	-0.501288539229	-0.675119077747	0.520187153071	0.037280120126	0.368680141578	0.604164777856	-0.252226933256	0.571958050654	-0.688830757283	0.452723425627	0.0290041860938	0.38042020599	0.548790403207	0.226361712813
-1.12886410643	3.36764317351	5.06727772848	3.44414103562	-1.1710377587	11.8217179475	0.199972179705	0.199135353547	0.199120681084	0.0297929267007	-0.179508402317	0.355328097419	-0.0567455341407	-0.302506613213	0.0593157661539	0.0242473994492	-0.0325652307648	-0.0256313247119	0.00286427499496	2.28102388434	-4.33913041442	0.733427030839	-0.48043162624	0.0106789301189	0.000749463671167	0.00750343530787	0.00825482950941	0.0111440462786	0.460770469188	0.835118756919	-0.481493444977	-0.618405711858	-0.280725777569	0.0710563422398	0.456391371034	0.847231701879	0.351968564332	-0.535989718565	0.657529147743	0.0608225402177	0.498435750567	0.83875708102	0.449213142584	-0.431252939179	0.72306190518	3.53791726308e-06	3.40655303387e-05	1.41417584607e-06	2.54875921336e-05	-2.80595167411e-06	-8.95221154492e-07	-0.000256431084986	0.150061288466	0.657073336059	0.0298115521067	0.706474945524	-0.0235238110465	-0.00159609175779	5.67690477089e-05	0.275502672479	0.582564834579	-0.40077636738	0.586200770283	3.35207182612e-06	3.3283608333e-05	0.156752331539	-0.703614157538	0.71058223772	-1.60805059207e-05	0.0609579255539	0.452013948864	0.726786619289	-0.780257481551	0.613274328011	-0.122095939958	0.0408588410645	0.421988587418	0.661794246946	-0.48320740847	-0.731319836027	0.459945490811	0.0128961707035	0.35660778016	0.641579892998	-0.276382693894	0.621437457114	-0.667228322446	0.452723425627	0.0290041860938	0.38042020599	0.548790403207	0.226361712813
-1.15509902521	2.1739260775	5.11149107898	3.43649770164	-1.63184295338	13.0959012632	0.200145335533	0.200061359557	0.19982301765	0.0200971733496	0.00799012853582	0.00286033924157	0.00763912172395	-0.0197094500914	0.00242223079106	0.00266617791515	0.0502109068205	0.0207301623254	-0.0903722201628	9.65700280476	-1.94058253137	0.218456038116	-0.680844766626	0.00872112942663	-0.0011979008438	-0.00092887054007	0.00169507325862	0.44861334209	-0.331691617654	0.698264807187	-0.190594025697	0.342608121705	-0.558720094378	0.463739750081	-0.326707040072	0.63803298661	0.500668758316	-0.655662292578	-0.38199581553	0.501781547995	-0.33071585198	0.660832052467	0.546458531065	-0.732509710206	-0.285342149251	3.9655934013e-05	-2.19811992765e-05	1.69808501155e-06	-1.71216898427e-05	-3.33302402155e-05	6.00287063512e-06	0.199246985177	-0.0701181044682	0.626943275509	-0.652426473195	-0.272671742983	0.469750901315	-0.000472940898541	-0.00153951460629	0.275503559112	0.640963003595	-0.298589347851	-0.073934501593	3.69561658192e-05	-2.04259488695e-05	0.156752879959	-0.986299302453	0.164965708362	3.05155618305e-05	0.47364114577	-0.216421344067	0.684364011019	-0.16808351071	0.651498816351	0.705355608638	0.446243087616	-0.153132774654	0.711670344776	-0.200161115037	-0.438527229198	-0.165094425475	0.380030034611	-0.11983761235	0.716393314947	-0.390862362712	0.750499290725	0.386034990618	0.452723425627	0.0290041860938	0.38042020599	0.548790403207	0.226361712813
-1.15513518849	2.17388862579	5.11148269007	3.43657092512	-1.63170025384	13.0958907228	0.200097758264	0.199878377237	0.199815995645	0.027724290129	-0.0144703509183	-0.00457273207422	-0.0045325297843	0.00196509538915	-0.00979927275553	0.0824549568604	-0.0717096207804	-0.0836739186091	0.128581377419	9.73195834284	-1.93580422506	0.175758414562	-0.705049762065	0.00788058159351	7.5756967525e-05	-0.000318250238299	0.000721254406281	0.485280784768	-0.313113035734	0.656448591086	-0.243568061247	0.387787233875	-0.529111842708	0.491307002481	-0.308336938042	0.594500237462	0.482559290623	-0.614254502901	-0.404442236179	0.532366762809	-0.310371714404	0.611695301075	0.537882183818	-0.698866649976	-0.31362087375	4.42701894804e-05	-2.00193767676e-05	2.42445135504e-06	-1.57682500498e-05	-3.45888630254e-05	-1.04196607244e-07	0.217112795584	-0.0624362263914	0.617692905761	-0.624292419155	-0.332065703137	0.488019359722	-0.000379478185448	-0.00156448578909	0.27550380091	0.643252818564	-0.293625849772	-0.108910552253	4.23097863023e-05	-1.88548785624e-05	0.15675371316	-0.990625405479	0.13660638544	3.73910092742e-05	0.502593349858	-0.197306971882	0.638237180288	-0.131506926052	0.666821228158	0.716236141536	0.476551870195	-0.13482360953	0.668487618959	-0.207467088421	-0.381800122591	-0.129138443542	0.410123631477	-0.104199614374	0.682374495761	-0.376333236198	0.717471441827	0.401709009237	0.452723425627	0.0290041860938	0.38042020599	0.548790403207	0.226361712813
-1.15518461045	2.17394015652	5.11146498945	3.43663061779	-1.6318109847	13.0958891311	0.200191548326	0.200180353748	0.199923427535	-0.0188246619973	-0.00377543329552	0.00378528558363	-0.00735550145029	0.0116949831554	0.00138250001855	0.0520444563489	0.0354843123479	-0.0236188259943	0.142944818353	9.52777826226	-1.80551229121	0.144500481754	-0.680957594171	0.0142673600685	-0.00116625272946	-0.00226607244671	0.000247488617246	0.497545441066	-0.305299975925	0.641239657991	-0.263532261328	0.402492592696	-0.517669303837	0.500018326834	-0.301046449407	0.579403837531	0.47545694633	-0.598867207615	-0.410630383385	0.54217250894	-0.302055754717	0.594071959047	0.534159364864	-0.68567219741	-0.322108070409	4.65038920514e-05	-1.87284575474e-05	1.95141972395e-06	-1.59484464302e-05	-3.92520076597e-05	-4.59893019369e-06	0.223727998133	-0.0590111118259	0.614020250714	-0.612191947276	-0.353878328825	0.494787930723	-0.000342595818455	-0.00157357219436	0.275504138148	0.644117547861	-0.291721670778	-0.122174284484	4.2886773364e-05	-1.72484381501e-05	0.156753722803	-0.992051155659	0.125835222077	3.70733002608e-05	0.511902558036	-0.189276612624	0.621148659686	-0.118686539508	0.672245991341	0.718453259002	0.486249045453	-0.127120572642	0.652454770003	-0.210592117442	-0.361023063433	-0.11463845577	0.420328348742	-0.0973168290068	0.669196570861	-0.37045108258	0.704373124794	0.40575980677	0.452723425627	0.0290041860938	0.38042020599	0.548790403207	0.226361712813
-1.15511753633	2.17386524461	5.11149563342	3.43646416457	-1.63168199958	13.0958960991	0.200186361062	0.199915015892	0.199755053901	-0.0170913830075	-0.00796476999566	-0.0091650912178	-0.0116588170918	-0.00330764645315	-0.00347487878782	-0.0523826953599	-0.0248265103439	0.0211300522901	-0.183756828556	9.8813921805	-2.02348275486	0.225575543717	-0.709755162504	0.00835463647508	-0.00215864754996	-0.000215805596232	0.00237871163338	0.501653054603	-0.302488248238	0.635988398314	-0.270478159671	0.407452932985	-0.513491897866	0.503072666134	-0.298302713134	0.573947878527	0.47282761601	-0.593251105633	-0.412565255085	0.545294718817	-0.299177736895	0.588225250439	0.532943875809	-0.681079309	-0.324766014864	4.71124243457e-05	-1.85643677233e-05	2.59715814557e-06	-1.36254207869e-05	-3.77592026408e-05	-5.77939071298e-07	0.225843543685	-0.0578536045663	0.612815539698	-0.608125935596	-0.360821750548	0.496961976437	-0.000330896107577	-0.00157623423209	0.275504189052	0.644399448868	-0.291098607662	-0.126582850949	4.31280538964e-05	-1.73365359939e-05	0.15675363689	-0.99246043671	0.122565412427	3.4434671239e-05	0.514807448025	-0.186533368704	0.61550485076	-0.114479139875	0.674011477334	0.718986353917	0.489316868843	-0.124453413016	0.647071857434	-0.211707224285	-0.35406306034	-0.109635113675	0.423421265919	-0.0950515704693	0.664998048717	-0.368532606498	0.700175677534	0.406824320501	0.452723425627	0.0290041860938	0.38042020599	0.548790403207	0.226361712813
-1.15516554671	2.17401226025	5.11146674467	3.43664214517	-1.63194327241	13.0958976525	0.200144740875	0.200125671799	0.199931933371	0.0188964551904	0.00471034385437	0.0050557435023	0.017349782849	-0.000858318381359	0.00233021564434	-0.0161093581875	-0.0457712179142	0.00355817229225	0.236230260631	9.20968953324	-1.80793472374	0.151089533399	-0.657010733494	0.0104804910217	-0.00137971288366	-0.0025318111483	0.00043419857117	0.517934742304	-0.29017343895	0.614208652839	-0.299738868884	0.42675870365	-0.496009257942	0.51433100713	-0.287073069747	0.552730712739	0.46180532008	-0.570552065172	-0.419275216553	0.557525816922	-0.286649752058	0.563886877568	0.527183924059	-0.661453129976	-0.334721096405	4.87954932171e-05	-1.75956423303e-05	2.74939996658e-06	-1.42288540272e-05	-3.81385785569e-05	-7.26573460228e-06	0.234854532064	-0.0524845068812	0.607499242673	-0.589591339451	-0.390370633015	0.506256367664	-0.000282769322353	-0.00158493585934	0.275503559139	0.645590935186	-0.288448145075	-0.145021542464	4.47796177623e-05	-1.59385089428e-05	0.156753287482	-0.994274911629	0.106852228893	3.52177008741e-05	0.526389268908	-0.174130065913	0.591189197525	-0.0970998375743	0.681348623459	0.720010867253	0.501570643745	-0.11233188511	0.623783362894	-0.216640405705	-0.324181840882	-0.0873152349364	0.436499309382	-0.0842501493562	0.645933061256	-0.359697797572	0.680827653061	0.410415588648	0.452723425627	0.0290041860938	0.38042020599	0.548790403207	0.226361712813
-1.1551113676	2.17386974782	5.11148973317	3.43650507484	-1.63165864327	13.0958896472	0.200073065581	0.200066328297	0.199880018623	0.0265508767261	-0.0072635830388	-0.00840647741125	0.000158076620467	0.0223389131769	-0.0100529207034	-0.0796190996485	-0.0635590832872	0.0169581794763	0.00361020776607	9.8623820297	-1.99018840525	0.211028856664	-0.709297111045	0.00829159575755	-0.00129805678514	-0.0021162554241	0.00108734564396	0.553231925503	-0.255580527432	0.560067960327	-0.374483674345	0.466915026418	-0.448899884632	0.538428266922	-0.255535714606	0.499941581374	0.430551320664	-0.509616917955	-0.427696171784	0.582856792898	-0.251360018368	0.502689660958	0.509208940797	-0.606607480864	-0.352193279238	5.30142005508e-05	-1.47608341224e-05	2.71373530691e-06	-1.42626904519e-05	-4.28018682698e-05	6.64302625152e-06	0.255571156506	-0.0373832488419	0.593975241326	-0.539015106885	-0.457677700339	0.527939735402	-0.000159964345144	-0.00160101193738	0.275503723089	0.648436401941	-0.281996701498	-0.189115139175	4.91908779096e-05	-1.32225773429e-05	0.156753812084	-0.997527931801	0.0702710726498	4.00355034489e-05	0.548138815805	-0.140749901146	0.532147412315	-0.0575982725814	0.697512786675	0.714248783692	0.52473005527	-0.0792791063372	0.566230646394	-0.230431697706	-0.25105602104	-0.0270343320209	0.462601999228	-0.0545069729083	0.598456372835	-0.336335927038	0.630892042018	0.410830830227	0.452723425627	0.0290041860938	0.38042020599	0.548790403207	0.226361712813
-1.15514136806	2.17394947572	5.11146918575	3.43652252279	-1.63190209619	13.0958938822	0.200135627188	0.200020442893	0.199909591254	-0.0249623576314	-0.0031662212899	-0.0138508543246	-0.0189526160581	0.000794943958034	-0.000501834964769	0.00701782311989	0.0787515932645	0.0274675410061	-0.103950772503	9.48422931446	-1.91467323075	0.192749525698	-0.664915320837	0.0109496373186	-0.00105730398824	-0.000234294362732	0.000896713106517	0.55561302131	-0.252731874801	0.55594602982	-0.380260291411	0.46952948739	-0.445089583475	0.539981630706	-0.252998691849	0.496038447973	0.427965082307	-0.504848610831	-0.427802797404	0.584424412674	-0.248529629996	0.498157882661	0.507674728099	-0.602223892106	-0.353013180241	5.33762742261e-05	-1.5063162478e-05	2.27569692318e-06	-1.36882977055e-05	-4.32651977362e-05	3.3983964885e-06	0.257147588083	-0.0360638264971	0.59285465813	-0.53465880345	-0.462760716716	0.529622335615	-0.000149750603161	-0.00160273818312	0.275504126297	0.648654706525	-0.281491426577	-0.192586513159	4.93299460106e-05	-1.35821484513e-05	0.156753413915	-0.997761778442	0.0668687666985	3.84371712504e-05	0.549469812442	-0.137939746195	0.527479007325	-0.0546461409179	0.69868318559	0.713269683933	0.526089089214	-0.0766043323776	0.561830229175	-0.231584432237	-0.245494151827	-0.0221469952729	0.46425014781	-0.052072020487	0.594782097292	-0.334429081411	0.626922666157	0.410380420617	0.452723425627	0.0290041860938	0.38042020599	0.548790403207	0.226361712813
-1.15511550171	2.17387643957	5.11149799574	3.43650907571	-1.63166013748	13.0958950055	0.200272479407	0.200173483849	0.199800760962	0.0184224206376	0.00160212508036	0.00268479859734	0.0111137717768	-0.0169985838883	-0.00506414658438	0.0540990799675	0.0294720649467	-0.00533749865869	-0.0163669740316	9.87325033813	-1.97604642187	0.214506240283	-0.716865729151	0.00810677804441	-0.00195501508976	-0.00225749983408	0.00165696424115	0.569770457522	-0.233934537663	0.529611050147	-0.417461047059	0.484608548527	-0.420290240851	0.549007152879	-0.236442446304	0.471379369842	0.410992528648	-0.473810210196	-0.427072153811	0.593264128147	-0.230137182255	0.469477872153	0.497322685375	-0.573339129971	-0.356882434866	5.50737451317e-05	-1.40633909366e-05	2.33734720906e-06	-1.28923464619e-05	-4.50870139267e-05	4.30959589844e-06	0.266116113172	-0.0279587538351	0.586214129604	-0.50821807744	-0.491652792793	0.539304736224	-9.16743100918e-05	-0.00160847982658	0.275504412816	0.6499427571	-0.27850151354	-0.212661183327	5.19928002096e-05	-1.26558995751e-05	0.15675416955	-0.99874823574	0.0500195924064	4.39156389621e-05	0.556332130426	-0.120320454797	0.499053886527	-0.0372396019963	0.705352103769	0.70564960749	0.533341472016	-0.0591994747403	0.533992910794	-0.239033966614	-0.210379915385	0.00973382695579	0.473469554983	-0.0362250423998	0.571562172365	-0.322181258042	0.601379248764	0.406031876536	0.452723425627	0.0290041860938	0.38042020599	0.548790403207	0.226361712813
-1.15513662455	2.17389100897	5.1114940898	3.43651043425	-1.63171618384	13.0959012534	0.200239349684	0.199904290223	0.199808475884	-0.0224209389956	0.00894384050878	0.00562468377262	0.00878231609427	-0.00762348773333	0.00418784037271	0.0231082382371	-0.0357293129618	-0.0170921068953	-0.114963390632	9.83711370768	-1.94181524824	0.212661306942	-0.703781483131	0.00960881305456	-0.00193362318358	-0.000217578076616	0.001462269475	0.585119027804	-0.208608767267	0.496016222947	-0.465214546181	0.499968480472	-0.387202188552	0.558261206118	-0.214620122934	0.440780898005	0.387818850746	-0.433260189811	-0.422143096624	0.601645371001	-0.206015030272	0.43380030506	0.482565843323	-0.534797719944	-0.357989401482	5.7433989339e-05	-1.14989532378e-05	2.8796255549e-06	-1.13321337839e-05	-4.74824278264e-05	6.86982087813e-06	0.277522727846	-0.0160964218129	0.576939506891	-0.470099132026	-0.528217919749	0.551986870583	-1.50914555081e-05	-0.0016111588277	0.275504465876	0.651682431341	-0.274405970441	-0.239767343539	5.25809977089e-05	-1.04354370643e-05	0.156753503838	-0.99964777263	0.0265391972973	4.05313224173e-05	0.56183553806	-0.0973218911626	0.463526049145	-0.016693977983	0.712562437011	0.691886928157	0.539170034741	-0.0362465746109	0.498681268318	-0.249094642435	-0.165873839648	0.0524283883932	0.482389641647	-0.0147960176292	0.541411532943	-0.305465305402	0.567092849155	0.396556090252	0.452723425627	0.0290041860938	0.38042020599	0.548790403207	0.226361712813
-1.15515723126	2.17395087892	5.11146634795	3.43656200902	-1.63184854562	13.0958949102	0.200234535272	0.200122775941	0.199948792663	-0.0242186819183	0.00703446882919	-0.000242135420139	0.00491882581438	0.00455028425834	0.000538576023142	-0.00299936790227	-0.032878238726	-0.0188217453074	-0.0209219731206	9.52821561167	-1.83244207613	0.184942028444	-0.674874343381	0.0109558569292	-0.00214656058923	-0.00237392005621	4.18079371317e-05	0.601280622451	-0.171328874521	0.449427690673	-0.531354228409	0.514099694481	-0.338525255775	0.567197052152	-0.182932632004	0.399363212597	0.352588145071	-0.374583349214	-0.407924981301	0.608181624564	-0.171325718378	0.385440692838	0.45901326664	-0.477503281252	-0.352577039142	5.96257715085e-05	-8.31803331744e-06	2.49679052297e-06	-9.47318330817e-06	-5.08759421557e-05	5.78485102001e-06	0.291964377622	0.00213265247202	0.563420214649	-0.412548801965	-0.57429299264	0.568939634644	8.84346602948e-05	-0.00160855662604	0.275503708987	0.654053010813	-0.268707183175	-0.276624760872	5.53787877842e-05	-6.70085634162e-06	0.15675428639	-0.999984388374	-0.00558757351175	4.48125913861e-05	0.563637169149	-0.0643348698862	0.414890046838	0.00921655565512	0.719993203142	0.664807904707	0.540877378037	-0.00288837723853	0.449364047096	-0.264163469413	-0.103539266886	0.116394125487	0.489123948858	0.0164099327022	0.499305878548	-0.280477374845	0.516791722662	0.376155260803	0.452723425627	0.0290041860938	0.38042020599	0.548790403207	0.226361712813
-1.15511717873	2.17390064452	5.11147825919	3.43651757407	-1.63176733743	13.0958896413	0.200103196592	0.200121355688	0.19990983843	-0.022827200779	-0.00248323977004	-0.00187130801773	4.71178709979e-05	-0.0154321259318	-0.00197638117175	-0.150545669276	-0.0037850705727	0.0621444125247	-0.214232690252	9.73179885166	-1.90014324101	0.204723804571	-0.695112473357	0.0123326715533	-0.00230863370013	-0.00206878847393	0.00124100915359	0.609986317724	-0.0428856723404	0.300519879155	-0.732829301412	0.501245194673	-0.164498302104	0.565264258562	-0.0765547069788	0.274996117505	0.216133834789	-0.171866954272	-0.306878011679	0.590135374475	-0.0594190978218	0.241855768472	0.357472610812	-0.268349105756	-0.282014935522	6.43952676098e-05	5.56578490291e-06	3.06069795653e-06	1.03251896647e-06	-5.74455154078e-05	5.5517264446e-06	0.324632577408	0.0717900604515	0.515528232597	-0.199668599107	-0.6783407159	0.617543314384	0.000427234022249	-0.00155270134282	0.275504290005	0.661395985121	-0.250090854273	-0.389634708623	5.84611106356e-05	5.97144948097e-06	0.15675438602	-0.993875740857	-0.110503436284	4.78136530751e-05	0.525965897861	0.0363238165282	0.273341953324	0.0699991293049	0.716577014408	0.518143309823	0.498486049591	0.0966469414786	0.306009604323	-0.313338201767	0.0838963245392	0.334010525949	0.466290873955	0.115830849131	0.370011233358	-0.187760989058	0.3378318865	0.258531080581	0.452723425627	0.0290041860938	0.38042020599	0.548790403207	0.226361712813
-1.15514320601	2.17393288274	5.11147198144	3.43654852702	-1.63182925581	13.0958928405	0.199940052407	0.19993012123	0.199928200218	-0.0240700699643	0.00403849938806	0.00351987796828	0.0128357391109	-0.0121542010241	-0.000840091870072	-0.00818367272338	0.0109308506731	-0.0424981199173	-0.0903049651479	9.60321669639	-1.84179939231	0.195641502275	-0.682073202445	0.0113013527789	0.000746425535886	-9.28270567385e-06	1.09681021526e-05	0.599037877425	-0.00518101585889	0.257178986394	-0.785324773946	0.48043140349	-0.108829825493	0.555711987194	-0.0455330106925	0.240636126691	0.169364431226	-0.108912211059	-0.262266811284	0.573909380532	-0.0286298416985	0.203294611829	0.319531188249	-0.2002550721	-0.246832421098	6.48362333489e-05	9.36155613269e-06	3.2709423724e-06	4.58221981888e-06	-5.91012251927e-05	9.67681873096e-06	0.32973548691	0.0951449141733	0.499949443312	-0.129984013303	-0.695069687759	0.630261463117	0.00052353387263	-0.00152422763022	0.275503540616	0.663491670434	-0.244472918243	-0.421163715186	5.79067069238e-05	8.83694211315e-06	0.156754115473	-0.989894796177	-0.141803703921	4.51003538797e-05	0.503430700451	0.0619906124996	0.236631161281	0.082064234467	0.705613623236	0.457567991796	0.473221694001	0.121532575561	0.26846973435	-0.327004335137	0.136584184482	0.40048478509	0.447187173155	0.142329050322	0.334720829566	-0.156371998269	0.279334850603	0.209515385287	0.452723425627	0.0290041860938	0.38042020599	0.548790403207	0.226361712813
-1.15511265824	2.173927918	5.11149037413	3.43648346065	-1.63178614938	13.0958930903	0.200105470735	0.199956294027	0.199861924453	0.0248343457495	-0.0108213784541	-0.00537600945932	-0.00579518584507	0.00245496372309	-0.00932101622074	-0.0576998631535	0.0266666840612	-0.00374512375785	0.00148124732258	9.55374211361	-1.97824093096	0.218859313184	-0.687772679279	0.00693597517554	-0.00115876064996	0.000128839519584	0.00129596211421	0.596884878195	0.000256782745458	0.250858502781	-0.792646948356	0.476716769173	-0.100511569235	0.553936344808	-0.0409928552849	0.235618034306	0.162169380752	-0.09947203519	-0.255082558207	0.571085934466	-0.0242147721234	0.197723045535	0.313567005377	-0.189914053234	-0.241098592945	6.5764251716e-05	1.06002707525e-05	3.34251236056e-06	5.62893779994e-06	-6.01620901104e-05	1.02077125668e-05	0.330397167708	0.0993816505488	0.497124916599	-0.117431431668	-0.697300345266	0.632422861831	0.000543051284049	-0.00151680955777	0.275504396428	0.663861043824	-0.243469733632	-0.426654726768	5.87575809891e-05	9.83131300445e-06	0.156753746182	-0.98907722269	-0.147398254539	4.58729616303e-05	0.499697625034	0.065567040428	0.231421890868	0.0836319941251	0.703524765953	0.447922899145	0.469034199283	0.124961550887	0.263147620291	-0.328935151869	0.14428024413	0.410344186038	0.443875288004	0.14610374253	0.329602304622	-0.151517409915	0.270351035017	0.201662864479	0.452723425627	0.0290041860938	0.38042020599	0.548790403207	0.226361712813
-1.28824523377	2.56691595435	4.81886078824	3.61937643698	-1.80298398339	12.843915501	1.20031947068	1.20005721909	1.19982371118	-0.221014167529	0.171997956877	-0.346272042247	0.211511071403	0.0268875103451	0.0132666351611	-0.0601674863151	-0.0460110466359	-0.0138566485172	0.0329373777963	8.85273232695	-3.74921798789	0.587019673118	-0.437696187905	0.0022400154398	-0.00445470143598	-0.00124876113266	0.00104969352408	0.594064148792	-0.029165251918	0.253484295945	-0.914835282822	0.0522841279771	-0.278315645251	0.550500573804	-0.0695577160081	0.236049732306	0.213052734025	-0.00836121792326	-0.685852623862	0.569346664505	-0.0527677201208	0.199898492726	0.389237867477	-0.0184478608936	-0.647300107707	6.56456672301e-05	6.33284759415e-06	2.91751685189e-06	3.55359215025e-06	-6.22517198856e-05	-9.13556647457e-06	0.332617417292	0.0835879253772	0.500296228576	-0.129527062879	-0.695157951602	0.641196753655	0.000472235767219	-0.00154233341403	0.275503944605	0.659408190464	-0.255279012821	-0.411832698375	5.83262017544e-05	5.74247879751e-06	0.156754516224	-0.99199239275	-0.126297626536	4.74975109717e-05	0.498986831305	0.0400153807088	0.233857653529	0.0772561039552	0.700408361662	0.468704434916	0.470401395227	0.100706049484	0.265598915568	-0.325273669864	0.15975039954	0.403370595893	0.446439934451	0.124097391272	0.331668453158	-0.141657555778	0.270016552463	0.219966165896	0.452723425627	0.0290041860938	0.38042020599	0.548790403207	0.226361712813
-1.29770226366	2.57379869295	4.80487718172	3.62792811897	-1.80187235925	12.8447248026	1.20036568587	1.20010899952	1.19985586109	-0.223182539237	0.183385198479	-0.343937265748	0.211771546421	0.0219408459199	0.0256967532325	-0.0907444169066	-0.00792342612405	0.0338537939815	0.0870207508363	8.9855120843	-3.81951156141	0.57145601392	-0.443342015687	0.0119502431026	-0.00522262302532	-0.00138568858982	0.00120529925026	0.593926348009	-0.0413110112091	0.259200678209	-0.909145515369	0.0583039866691	-0.288186920321	0.550210710464	-0.0802226577965	0.240124240286	0.22517230001	-0.00981837184825	-0.688343478124	0.569897718217	-0.0625047179777	0.20448419157	0.400032952687	-0.0208528292476	-0.647971442501	6.62315433155e-05	2.95057051673e-06	3.52041908006e-06	-1.57061102357e-06	-5.82188836038e-05	-9.25724572286e-06	0.332004432366	0.0756859890788	0.503968481314	-0.140591770651	-0.693007679014	0.642995372387	0.000442068623022	-0.00155393715201	0.275503956283	0.658007727658	-0.258859120879	-0.403251839286	5.89269565315e-05	2.90088456034e-06	0.15675420855	-0.993213533075	-0.11630509769	4.43622602056e-05	0.500156710286	0.029322484126	0.23908738246	0.0726506792977	0.70041748752	0.479573881265	0.472311467827	0.0904990564964	0.270775003264	-0.323189805418	0.160682786513	0.39774944774	0.448269722205	0.114180272606	0.336556039673	-0.141002722241	0.275662683374	0.23014243217	0.452723425627	0.0290041860938	0.38042020599	0.548790403207	0.226361712813
-1.34966924237	2.61173929974	4.72791166048	3.67482410316	-1.79602226597	12.8492143596	1.20034943658	1.20004685156	1.19986378647	-0.220957381421	0.160530244585	-0.362167233209	0.212764894751	0.0471686855621	0.0147247264097	-0.027944785196	-0.0649066680064	-0.0332192473766	0.221806028695	8.86065519221	-4.08305512301	0.55476960009	-0.41113920282	0.00648817819826	-0.00443213386712	-0.00133404133126	0.000455315173222	0.601238437224	-0.0020457191309	0.287756833981	-0.919145852778	0.00902593592656	-0.259626435247	0.561796971158	-0.0443087099098	0.271962476437	0.204294454521	0.00268608443026	-0.65150416397	0.578355992358	-0.0251083577544	0.23538312171	0.380260378246	0.00170038859425	-0.615757259458	6.21566062179e-05	5.96340631559e-06	3.44817780026e-06	-1.09725647889e-06	-5.68156450094e-05	8.90292511004e-06	0.313612806038	0.0869360607843	0.524979547838	-0.14476879225	-0.692139231553	0.626677279158	0.000502584742742	-0.00153096674074	0.275503448386	0.670914676582	-0.223297753749	-0.396881430847	5.43192949048e-05	6.88923949947e-06	0.156753913523	-0.99063931752	-0.136505460802	4.1788953408e-05	0.499953759031	0.0568131125292	0.268503778404	0.0490830452319	0.702559990016	0.440161470806	0.465656122846	0.113585080214	0.300503906412	-0.328842879555	0.136756386542	0.440354929336	0.436838529058	0.134314956518	0.365295277657	-0.16046932731	0.297064568059	0.203896142352	0.452723425627	0.0290041860938	0.38042020599	0.548790403207	0.226361712813
-1.57160224067	2.77415381809	4.39889374587	3.87538976392	-1.77159888877	12.8684137515	1.20007596777	1.20053467678	1.20026048661	-0.244603922262	0.164562349402	-0.354754409031	0.208700989873	0.0416619729194	0.000973559810213	-0.0165782418593	0.0201978159674	0.0374639196479	0.0932867879866	7.31233753172	-3.95641864126	0.383364055187	-0.181709878598	-0.00865447844678	-0.00158378028108	-0.00536124820639	-0.00280485443107	0.528158042928	0.280210665268	0.434243424686	-0.920715352845	-0.336702104312	-0.096121354358	0.525786087895	0.219699649576	0.443052129186	0.00776371249908	-0.0256072566242	-0.366849307787	0.52826943466	0.227839550677	0.399453677488	0.180154431796	0.0370194688171	-0.356007571767	4.12794032915e-05	2.26871410021e-05	2.39225191132e-06	1.19750533465e-05	-3.46583266545e-05	3.63149786271e-06	0.175053816061	0.146760829777	0.61600891266	-0.100729096458	-0.699900187276	0.467897318555	0.00108002550259	-0.00119151568909	0.275503294979	0.706010958474	0.0392307212597	-0.426567506783	3.71099742893e-05	2.31830131594e-05	0.156753281102	-0.938960628457	-0.344024616762	3.41970187032e-05	0.413549094489	0.253167938153	0.419398108248	-0.0548101237476	0.723545641088	0.0741301008737	0.348630184215	0.27286621954	0.448244041462	-0.365133311058	-0.0186846350024	0.687273759181	0.299472357277	0.267888239051	0.502569507182	-0.304767641408	0.365012050525	-0.00857491695242	0.452723425627	0.0290041860938	0.38042020599	0.548790403207	0.226361712813
-1.60936238194	2.80182185976	4.34286591575	3.9095014791	-1.76742695594	12.8716823687	1.20016555006	1.20020996627	1.20006952017	-0.231009138832	0.183387571027	-0.343955776544	0.207082278702	0.0296942134187	0.0375165064624	0.132306144005	-0.0233853649349	-0.149749691565	0.0810678946395	7.02440496454	-3.76327349799	0.367285543489	-0.147816657101	0.00789220281394	-0.000990759608799	-0.00254997548964	-0.0027673256987	0.499909121374	0.316653142143	0.456942708453	-0.906366697054	-0.38991805635	-0.0825463930657	0.503737506016	0.25704165935	0.470230621323	-0.0218256967721	-0.0469425274457	-0.315612827325	0.506180345636	0.262388593092	0.4263396325	0.147104634582	0.0251533859211	-0.306014128353	3.49298168031e-05	2.49248131555e-05	1.96992754897e-06	1.65751722696e-05	-2.72401494223e-05	-2.99039156329e-06	0.151575799502	0.145777950174	0.627494696451	-0.0936322715978	-0.700891612089	0.435971804388	0.00116049221717	-0.00111676060495	0.275502748729	0.702283164695	0.0823623830283	-0.431263215982	3.35086948295e-05	2.36495477433e-05	0.156752808228	-0.926416051347	-0.376501392687	3.2588216193e-05	0.389135448816	0.276540389218	0.442529578262	-0.0686470909196	0.727840378852	0.0105699159152	0.322109395305	0.288857710251	0.470205361507	-0.369131487927	-0.0435718659972	0.717922578723	0.271173079065	0.278874878572	0.522600496456	-0.330526136646	0.370817525575	-0.0401526218956	0.452723425627	0.0290041860938	0.38042020599	0.548790403207	0.226361712813
-1.61408825024	2.80526775492	4.33585804379	3.91380918379	-1.76689088195	12.8720788803	1.19996637334	1.20040162339	1.20027758372	-0.242476503422	0.164998276883	-0.350599968346	0.216679340619	0.0290400539969	0.0175772201042	-0.125936806933	0.0279338677852	0.149462835161	0.0429606266861	6.94774936971	-3.75713564963	0.348305275128	-0.146328100827	0.0037396460586	-0.0015814216719	-0.00395335336611	-0.00185583581276	0.495423840818	0.321857476165	0.46021557965	-0.903758595291	-0.398027403393	-0.0807880850249	0.499817671325	0.262956070037	0.474541003608	-0.0265793047209	-0.0507677143204	-0.306940839849	0.502339628591	0.26778898722	0.430582981836	0.141762936192	0.0228672744557	-0.297590784806	3.7861794915e-05	2.22036618638e-05	2.22584759538e-06	1.34873049475e-05	-2.93574530085e-05	-6.89501147566e-07	0.14842679729	0.145426760717	0.628977313205	-0.092683800243	-0.7010148619	0.431502723942	0.00117045280431	-0.00110791812524	0.275503045482	0.701585875505	0.0881012151591	-0.431878178217	3.4856113289e-05	2.20307122512e-05	0.156753069012	-0.924672367765	-0.380763720822	3.39424998808e-05	0.385485614215	0.279699954271	0.445788237256	-0.0706821692268	0.72843845962	0.00126511009204	0.318347659735	0.290853392143	0.473195135269	-0.369764480928	-0.046964379362	0.722071687543	0.267251181756	0.280139439495	0.525277999018	-0.334051966629	0.371548790377	-0.044488412792	0.452723425627	0.0290041860938	0.38042020599	0.548790403207	0.226361712813
-1.61881148632	2.80872464422	4.32887099829	3.91814025561	-1.76636681771	12.8724629394	1.1998377651	1.20049849283	1.20050031806	-0.247475905148	0.164275646404	-0.354007415335	0.211261516318	0.0265728974858	0.0248693532176	0.0394835621291	0.0534944336776	-0.0150280254036	0.0240322664147	6.90445757418	-3.83894560859	0.310133974994	-0.142800191483	0.0194290545759	0.00135886447272	-0.00466644263958	-0.00572808835034	0.491693062375	0.325873713348	0.462923770611	-0.901795885853	-0.404050302478	-0.0795057577016	0.497130945612	0.266650763948	0.477422938194	-0.0295615803631	-0.0533527706166	-0.30168921368	0.499715200674	0.271177836159	0.433453220963	0.138376499485	0.0212387220908	-0.292433101183	3.28280177507e-05	2.51609336331e-05	1.63196578179e-06	1.75123507825e-05	-2.53732565115e-05	5.07817778879e-06	0.145055105332	0.144987808797	0.630554319795	-0.0916101352837	-0.701157913384	0.426689172483	0.00117976704984	-0.00109344123721	0.275503187503	0.700852764258	0.0937724928176	-0.432521635496	3.13147111418e-05	2.4082146754e-05	0.156752700734	-0.922831562079	-0.385203721433	3.08646902743e-05	0.382069457852	0.282453986419	0.448762657331	-0.0723328014286	0.729005897771	-0.0069200441968	0.314438667022	0.292801331398	0.476240000716	-0.370193998314	-0.0504874165025	0.726116570848	0.263174592082	0.281358020076	0.52802028516	-0.337750604623	0.372165717869	-0.0487868179191	0.452723425627	0.0290041860938	0.38042020599	0.548790403207	0.226361712813
-1.65187861916	2.83295263094	4.27984082882	3.94796792156	-1.76269394848	12.8753405804	1.20018249452	1.20044253405	1.20018637721	-0.241475095592	0.160786433801	-0.362982371703	0.212425024075	0.0378868716706	0.00992365753396	0.0116010882671	0.0117325597097	-0.0427884120093	0.118913982369	6.46045665487	-3.73297340183	0.307397629645	-0.113272047056	0.00164646344203	-0.00236725414565	-0.00452447352268	-0.00286628329022	0.462780434765	0.354346457699	0.482762078841	-0.884685595187	-0.449646535873	-0.0719564584441	0.473220829488	0.296933348099	0.501300190555	-0.0540867931521	-0.0770161522079	-0.255519861884	0.476672018525	0.298854061601	0.457218124793	0.110146886221	0.00559637705995	-0.246716741712	2.92788591152e-05	2.55696826847e-05	2.00744872897e-06	1.66538295558e-05	-2.0722537263e-05	2.52469491878e-07	0.125241659952	0.141043698162	0.639565710387	-0.0854311477995	-0.701937753791	0.397161884077	0.0012420948077	-0.00102502734377	0.275502371058	0.694716860728	0.131729958278	-0.436642492219	2.81383565267e-05	2.3774807535e-05	0.156752569828	-0.910691440621	-0.413087277833	2.86468530605e-05	0.358206891104	0.299951918755	0.468850903166	-0.0837760440903	0.733077396021	-0.0629866787666	0.289455450073	0.303648457407	0.495235380589	-0.373366757515	-0.0727117859772	0.75054517824	0.237437078114	0.287483805956	0.544966863033	-0.360991460726	0.375755416224	-0.0757716192505	0.452723425627	0.0290041860938	0.38042020599	0.548790403207	0.226361712813
-1.66601767568	2.84332645266	4.25883692577	3.96085238515	-1.76118214571	12.8765903333	1.19984561226	1.20029078873	1.20030819826	-0.225225050816	0.180190584536	-0.345615423016	0.229088409119	0.0148935867275	0.0221435071065	-0.0477728830729	-0.0508112067098	0.0098009371998	0.0651084107628	6.42267710789	-3.62662022984	0.263718099801	-0.0937287755732	-0.00490113677998	0.000407826412774	-0.00363245707436	-0.003558599808	0.451946377933	0.363688336126	0.489699871481	-0.877870073054	-0.465430293079	-0.0700807341728	0.464034693434	0.307091227641	0.509687285779	-0.0624087323944	-0.0861883961851	-0.239158720814	0.467930501492	0.308126609436	0.465628731487	0.100382124253	-0.00082018986932	-0.23036575482	2.93242245396e-05	2.56313306926e-05	1.46596498121e-06	2.11425473308e-05	-2.2980086048e-05	-1.78129161855e-06	0.11830030791	0.139099378172	0.64262180041	-0.0831925981786	-0.702209302187	0.386283390847	0.00126579937062	-0.00099879125325	0.275502926643	0.692118227958	0.144752637144	-0.438067231753	2.8745231943e-05	2.33217583229e-05	0.156752676183	-0.906233518625	-0.422777493311	2.90672058217e-05	0.349368330778	0.305586497369	0.475907185482	-0.0876918842003	0.734549301813	-0.0828068890666	0.280376884064	0.306896213684	0.501876740584	-0.374385634086	-0.0806110974475	0.758728920338	0.228204919713	0.289030123682	0.550852373221	-0.369349411344	0.376721555204	-0.0851686947513	0.452723425627	0.0290041860938	0.38042020599	0.548790403207	0.226361712813
-1.68490635003	2.85715443125	4.23080964897	3.9779948973	-1.75917084027	12.8782228522	1.19979130666	1.20048985931	1.2004625649	-0.228102776485	0.181804112606	-0.342009707828	0.221467251836	0.0170716067665	0.0327440977883	-0.0453992171948	-0.0659177661904	-0.00515387780119	0.0536424410669	6.26992481295	-3.47220811281	0.208945638096	-0.0602175652968	0.00043152831708	0.000974619179974	-0.00577422844037	-0.00525181428945	0.433814124358	0.377937660708	0.500746627989	-0.866045832451	-0.490461807265	-0.0678421805224	0.448143750489	0.323064096915	0.523312295299	-0.0757481873457	-0.102071394976	-0.212204600474	0.45279063655	0.322779657346	0.479464786242	0.0844299428622	-0.0123972893198	-0.203102098372	2.63228557564e-05	2.45903060472e-05	1.67888486569e-06	1.55791495584e-05	-2.13931158508e-05	-4.07142615897e-07	0.107037384055	0.135315364574	0.647457025775	-0.0794557504216	-0.702635376596	0.36794714722	0.00129645365953	-0.000951185763293	0.275502712699	0.687153373911	0.166758686164	-0.440505112776	2.50885917707e-05	2.40120440248e-05	0.156752373168	-0.898269025964	-0.439445965074	2.65915725276e-05	0.334560151079	0.314124272762	0.487307924045	-0.0939006987888	0.736924418929	-0.115093758567	0.265337037809	0.311528033967	0.512599090693	-0.37599555768	-0.0934744019044	0.771614293481	0.213019133325	0.290875162898	0.560326278137	-0.383123960782	0.377978044858	-0.100409198597	0.452723425627	0.0290041860938	0.38042020599	0.548790403207	0.226361712813
-1.70852675721	2.87445377419	4.19577650589	3.99930133146	-1.75657612499	12.8802450367	1.19974912593	1.20027439077	1.20038880183	-0.242457254399	0.165321557203	-0.357302039516	0.210404334618	0.0312486587428	0.0188987820937	0.00414192269451	-0.00529238076688	-0.00138442782413	0.0333459022162	5.91463657808	-3.38295714983	0.200564906168	-0.0321543043444	0.00278130366294	0.00189184020764	-0.00301329066513	-0.00447649011501	0.408209197795	0.395438217224	0.515596014762	-0.848466609725	-0.523262705594	-0.0667945378034	0.426060532003	0.342472471667	0.540959842131	-0.0921259894583	-0.124446293649	-0.177136544148	0.432275703662	0.340334511247	0.497236886084	0.0646178940865	-0.0291455268899	-0.167685465836	2.93320212646e-05	2.28092039377e-05	1.42490631611e-06	1.71240222353e-05	-2.54164950174e-05	8.85071733929e-07	0.0930614360682	0.12932010598	0.653302080048	-0.0746813137455	-0.703165881641	0.343792678143	0.00134248114774	-0.000895612204913	0.275502706819	0.67989547462	0.194220834302	-0.443518017019	2.6984139554e-05	2.12756038752e-05	0.156752087162	-0.887942993871	-0.459953518329	2.4570334431e-05	0.314143704042	0.324147154005	0.50243571671	-0.101856413789	0.740262729493	-0.157652708165	0.245406338179	0.31621663804	0.526444884586	-0.377887405638	-0.110467800742	0.787224672486	0.193154618736	0.291878997743	0.572458762622	-0.401339607813	0.379021743056	-0.119903070566	0.452723425627	0.0290041860938	0.38042020599	0.548790403207	0.226361712813
-1.7132398883	2.87793664149	4.18878710106	4.00359340407	-1.75606700107	12.880665667	1.19992651758	1.20059147592	1.2004383638	-0.23065412564	0.18111472155	-0.342388084201	0.216235947488	0.0182440035942	0.0255357227552	-0.000360398808048	0.0277880018086	0.0172354247874	0.0479042381929	5.82403623834	-3.36136163269	0.187517933896	-0.0277458690997	-0.000142280521587	7.28987597753e-05	-0.0058533368278	-0.00478590971963	0.404432945195	0.397749808708	0.517714498746	-0.845823470636	-0.527818310051	-0.0668287204379	0.422382278966	0.345356771531	0.543769720046	-0.0945875017322	-0.128160257917	-0.171702896089	0.428869998714	0.342934107485	0.500097047721	0.0616180145275	-0.0320035850659	-0.162223014845	2.57631889666e-05	2.48871333503e-05	1.80256066776e-06	1.28842719718e-05	-2.07947977769e-05	3.00892796305e-06	0.0907054683784	0.128202290399	0.65425416058	-0.0738272842985	-0.703246545336	0.339557030116	0.00134385783147	-0.000880255632612	0.275502327524	0.678400237847	0.199408141583	-0.444127612398	2.28909154292e-05	2.49109029873e-05	0.156752305354	-0.885996501213	-0.463691922655	2.48816333856e-05	0.311270869316	0.325398510126	0.50449728651	-0.102930365446	0.740715437503	-0.163438307879	0.242125594798	0.316850435222	0.528666672215	-0.378214864567	-0.11319535954	0.789697005437	0.190034273689	0.291923994261	0.574316684856	-0.404187461061	0.37912955942	-0.122973126632	0.452723425627	0.0290041860938	0.38042020599	0.548790403207	0.226361712813
-3.13931362384	3.92272927651	2.07336076426	5.28801329478	-1.59250834377	13.0039127157	1.20071210242	1.19919547597	1.19897517161	-0.255568316572	0.163009170359	-0.363048147809	0.230025986157	0.0196631071504	0.00454088735474	0.0401198585034	-0.0153133465263	-0.00747999808427	0.0380992062521	-10.3096174109	3.66702144539	1.26667918418	0.12872648207	-0.00413124395049	-0.00737814584998	0.00767564815411	0.00959885651587	-0.0938220783743	-0.267355357479	0.513632789349	0.900211331409	-0.419253561004	-0.0326545286	-0.147220309421	-0.273689599422	0.542248918366	0.114440652668	-0.179085136728	0.884731778713	-0.154108794587	-0.263871590753	0.499464934733	-0.0525817687365	-0.103855766247	0.907722596622	-1.55043858681e-06	-9.83398993532e-06	5.14919852979e-07	-7.74537842731e-06	1.22867544037e-06	-1.32382942779e-06	0.0885056914216	0.0686149507796	0.669910408077	0.654696414571	-0.267121295802	-0.607229697145	-0.000960541456598	0.00126708569246	0.275500262748	-0.314069277593	0.633542981187	-0.695233531083	-9.84584370943e-07	-9.41456134113e-06	0.15675024015	0.3156302698	-0.948882254367	-1.15199883632e-05	-0.123230004824	-0.155729669256	0.54302165872	-0.479909179848	-0.392146368426	-0.508760668918	-0.112289312869	-0.101672633387	0.592654640116	0.141527722957	-0.127866330416	-0.0395535895795	-0.0683510047963	-0.0638066012935	0.638790979451	-0.261975508906	-0.596905574021	-0.661291508019	0.452723425627	0.0290041860938	0.38042020599	0.548790403207	0.226361712813
-3.45107705848	4.15037220403	1.61149897791	5.57027925064	-1.55383728964	13.0308639403	0.888857821886	0.887475328691	0.886902418264	-0.0184528791926	-0.0015960047486	0.000872799889603	0.00209720327215	0.00202422409112	-0.00585117784094	-0.711452940061	-0.715320155866	-0.685202783676	-0.0665953687862	-9.84860781359	2.0678661315	0.770596180461	-0.417474733566	-0.000220051959765	-0.00560598282597	0.00249236478874	0.00583778847764	0.188670552891	-0.281467994278	0.527286034817	0.933377117892	0.0999282889419	0.236725303606	0.158560437056	-0.33399727511	0.517203210816	-0.154222457071	0.0317486087788	0.57726389396	0.172621737555	-0.317973229278	0.478027542257	-0.332034923549	0.0135149122907	0.544229628369	9.79533668209e-06	-1.28215392922e-05	8.11440065973e-07	-8.597589017e-06	-8.62407383638e-06	1.75194745788e-06	-0.000698871791753	0.0105476905075	0.685367157287	0.691508212331	0.147611233295	-0.677052232917	-0.0015811394363	0.000117481040536	0.275500835278	-0.485492655636	0.514121132942	-0.526459202893	9.47339462057e-06	-1.23512183184e-05	0.156750729158	0.676871618343	-0.736101088156	-1.68290673789e-05	0.0782478708034	-0.245908435193	0.499765044692	-0.0201967775666	-0.738510861527	-0.331987929993	0.0172503672035	-0.216409702828	0.530305430439	0.222495934394	0.219530322892	-0.451143401971	-0.0041213083436	-0.171545053739	0.585380900553	0.162944030033	-0.481950268729	-0.790454581424	0.539822173119	0.0615252715349	0.365744554003	0.615446615219	0.269911086559
-3.45108012981	4.1504543071	1.61147338251	5.57016816301	-1.55378054632	13.0308541096	0.260013182518	0.259223623594	0.259039975965	-0.0175347274721	0.00173235462054	-0.000739058009741	-0.00286938339781	0.00469692596227	-0.00440631474952	-0.334234895494	-0.340497660987	-0.330821057075	-0.0466481747474	-10.2424819483	2.1877829971	0.823656785834	-0.428288879898	0.00541766945972	-0.00438879492086	0.00254978809962	0.00462373922554	0.317240434892	-0.239718878613	0.512244788678	0.908398774549	0.250363513673	0.222566750345	0.30428861379	-0.299158126546	0.504328040869	-0.149715945808	0.0511123538441	0.447604843664	0.315848638816	-0.281779015515	0.464857659048	-0.322750431285	0.00510396571839	0.414654268518	1.62057153598e-05	-1.32047559963e-05	7.54553352994e-07	-9.46468970817e-06	-1.33048131354e-05	2.87582990628e-06	0.0213404554968	-0.0605647143926	0.680448002979	0.619008545955	0.341757601146	-0.700080824702	-0.00147494912966	-0.000582658430184	0.275501330593	-0.548679287699	0.446065096792	-0.354846188863	1.55612583308e-05	-1.2365990634e-05	0.156750870292	0.822678655335	-0.56850666639	-1.74450604852e-05	0.203494295974	-0.239407879686	0.476725601614	0.0800704275107	-0.761004206848	-0.219725296496	0.132815400623	-0.23626559787	0.499659812726	0.147881235674	0.353951673109	-0.541968796537	0.0909788213856	-0.211298798517	0.55563766514	0.271596701997	-0.353900697749	-0.857416662962	0.539822173119	0.0615252715349	0.365744554003	0.615446615219	0.269911086559
-3.45108768413	4.15037058748	1.61150199436	5.57028952439	-1.55384214305	13.0308533778	0.21517343493	0.214504592768	0.214366560061	-0.0193926557562	0.000130325583112	0.000641677880547	0.000293310798042	0.00546729657544	-0.00394497043284	-0.142429793908	-0.142554859341	-0.143031455028	-0.0181660319076	-9.83189347301	2.05162816156	0.764557374049	-0.415815441101	0.00601430187341	-0.00409420092017	0.00204149697938	0.00375989097923	0.341691131279	-0.224953148482	0.507466532565	0.901775011853	0.275411847808	0.218845961923	0.331972130999	-0.284959862832	0.499907501618	-0.149280227384	0.0526864882288	0.424046369248	0.343184689082	-0.267177454933	0.460342812356	-0.321043417985	0.00198276626443	0.391120321154	1.77814269824e-05	-1.30003455432e-05	1.04949726859e-06	-7.14077163483e-06	-1.43126019813e-05	-2.17962067568e-07	0.0324071028821	-0.0711406470727	0.677987477216	0.599031109063	0.375675959704	-0.702646916103	-0.00142045730019	-0.000706593616302	0.275501483729	-0.559606368976	0.432276147004	-0.317874236162	1.72084432021e-05	-1.21430640593e-05	0.156750989445	0.845727629661	-0.533614819963	-1.8022498497e-05	0.228480435949	-0.230704564893	0.471018807778	0.0980226607785	-0.762078801243	-0.20075029989	0.157247736827	-0.232670168034	0.492712783325	0.128172055685	0.375193118891	-0.555783773413	0.113111474541	-0.21237453134	0.548717948209	0.285175628969	-0.327060133808	-0.868646951288	0.539822173119	0.0615252715349	0.365744554003	0.615446615219	0.269911086559
-3.45107338679	4.15043897051	1.61147709663	5.57018464399	-1.55381376091	13.0308533588	0.200431551415	0.199737098288	0.199560100667	-0.0167743682299	0.00295833092201	-0.00123193853954	-0.00527027693874	0.00388645144506	-0.00428496618556	-0.000202720152787	-0.00354972547259	-0.000697417291436	-0.0765615077225	-10.1596691652	2.16674800802	0.814215848476	-0.421808057242	0.00585378815643	-0.00426599717606	0.00220712947982	0.00441538984272	0.37416266795	-0.201071793741	0.499929132123	0.892206946611	0.307852033876	0.212902165121	0.368468333831	-0.261724270441	0.492902786934	-0.148491164934	0.0536284381186	0.392921435712	0.378715298155	-0.243655448469	0.453264031715	-0.31844835843	-0.0031135553705	0.360622976279	2.03438900728e-05	-1.28375612946e-05	1.14732966919e-06	-7.23981573616e-06	-1.63263550621e-05	1.38966153519e-07	0.0504539344215	-0.0829404490292	0.673851378464	0.568770901073	0.420082096259	-0.70521958047	-0.00132975334678	-0.000865546155143	0.27550144656	-0.573880090185	0.413138680659	-0.265930217699	1.9534876037e-05	-1.24677330225e-05	0.156751404296	0.874863085623	-0.484370293245	-2.06382991887e-05	0.261935418761	-0.214805821809	0.462583752391	0.121598065513	-0.761997800759	-0.175977884217	0.190832612721	-0.223529797445	0.482643915384	0.0989147457205	0.401524343227	-0.573067762767	0.144165385265	-0.209848741838	0.538716605268	0.299880401414	-0.290180243731	-0.88304163514	0.539822173119	0.0615252715349	0.365744554003	0.615446615219	0.269911086559
